( Made using CamBam - http://www.cambam.co.uk )
( case sides - cutfiles 11/29/2015 2:20:53 PM )
( T13 : 3.0 )
G21 G90 G91.1 G64 G40
G0 Z3.0
( T13 : 3.0 )
T13 M6
( 3mm Drill )
G17
M3 S1000
G0 X16.1585 Y8.3145
G98
G81 X16.1585 Y8.3145 Z-7.0 R3.0 F50.0
G81 X34.057 Y29.1415 Z-7.0
G81 X16.1572 Y50.9276 Z-7.0
G81 X15.0144 Y72.6174 Z-7.0
G81 X59.1699 Y100.2321 Z-7.0
G81 X98.9578 Y72.6174 Z-7.0
G81 X111.1474 Y52.0937 Z-7.0
G81 X116.6161 Y28.4528 Z-7.0
G81 X98.9576 Y7.9428 Z-7.0
G81 X73.7361 Y30.6608 Z-7.0
G81 X63.8452 Y7.734 Z-7.0
G81 X170.9412 Y28.6495 Z-7.0
G81 X192.7965 Y7.9424 Z-7.0
G81 X204.9859 Y52.0937 Z-7.0
G81 X192.7965 Y72.6174 Z-7.0
G81 X204.9861 Y109.0513 Z-7.0
G81 X111.1474 Z-7.0
G80
G0 Z3.0
M5
M30
