( Made using CamBam - http://www.cambam.co.uk )
( case sides - cutfiles 11/29/2015 2:21:09 PM )
( T4 : 4.0 )
G21 G90 G91.1 G64 G40
G0 Z3.0
( T4 : 4.0 )
T4 M6
( 4mm Mill Pocket )
G17
M3 S1000
G0 X111.1486 Y108.8513
G0 Z1.0
G1 F50.0 Z-2.0
G3 F200.0 X111.3467 Y109.0495 I0.0001 J0.1981
G2 Y109.0531 I2.8 J0.0018
G3 X111.1485 Y109.2513 I-0.1981 J0.0001
G2 X111.1457 I-0.0011 J2.8
G3 X110.9474 Y109.053 I-0.0001 J-0.1982
G2 Y109.0498 I-2.8 J-0.0017
G3 X111.1458 Y108.8513 I0.1983 J-0.0001
G2 X111.1486 I0.0016 J-2.8
G1 F50.0 X111.1482 Y108.0513
G3 F200.0 X112.1467 Y109.05 I0.0004 J0.9981
G2 Y109.0526 I2.0 J0.0013
G3 X111.1482 Y110.0513 I-0.9981 J0.0006
G2 X111.1462 I-0.0008 J2.0
G3 X110.1474 Y109.0525 I-0.0006 J-0.9982
G2 Y109.0502 I-2.0 J-0.0012
G3 X111.1463 Y108.0513 I0.9983 J-0.0006
G2 X111.1482 I0.0011 J-2.0
G1 F50.0 X111.1486 Y108.8513
G1 Z-3.2
G3 F200.0 X111.3467 Y109.0495 I0.0001 J0.1981
G2 Y109.0531 I2.8 J0.0018
G3 X111.1485 Y109.2513 I-0.1981 J0.0001
G2 X111.1457 I-0.0011 J2.8
G3 X110.9474 Y109.053 I-0.0001 J-0.1982
G2 Y109.0498 I-2.8 J-0.0017
G3 X111.1458 Y108.8513 I0.1983 J-0.0001
G2 X111.1486 I0.0016 J-2.8
G1 F50.0 X111.1482 Y108.0513
G3 F200.0 X112.1467 Y109.05 I0.0004 J0.9981
G2 Y109.0526 I2.0 J0.0013
G3 X111.1482 Y110.0513 I-0.9981 J0.0006
G2 X111.1462 I-0.0008 J2.0
G3 X110.1474 Y109.0525 I-0.0006 J-0.9982
G2 Y109.0502 I-2.0 J-0.0012
G3 X111.1463 Y108.0513 I0.9983 J-0.0006
G2 X111.1482 I0.0011 J-2.0
G0 Z3.0
G0 X204.7863 Y109.0475
G0 Z1.0
G1 F50.0 Z-2.0
G3 F200.0 X204.9847 Y108.8513 I0.1983 J0.0021
G2 X204.9874 I0.0016 J-2.8
G3 X205.1859 Y109.0499 I0.0001 J0.1985
G2 Y109.0529 I2.8 J0.0014
G3 X204.9875 Y109.2513 I-0.1983 J0.0001
G2 X204.9846 I-0.0012 J2.8
G3 X204.7863 Y109.053 I-0.0001 J-0.1982
G2 Y109.0498 I-2.8 J-0.0017
G3 Y109.0475 I0.1983 J-0.0001
G1 F50.0 X203.9863 Y109.039
G3 F200.0 X204.9852 Y108.0513 I0.9983 J0.0106
G2 X204.9871 I0.0011 J-2.0
G3 X205.9859 Y109.0503 I0.0004 J0.9985
G2 Y109.0524 I2.0 J0.001
G3 X204.9872 Y110.0513 I-0.9983 J0.0006
G2 X204.9851 I-0.0009 J2.0
G3 X203.9863 Y109.0525 I-0.0006 J-0.9982
G2 Y109.0502 I-2.0 J-0.0012
G3 Y109.039 I0.9983 J-0.0006
G1 F50.0 X204.7863 Y109.0475
G1 Z-3.2
G3 F200.0 X204.9847 Y108.8513 I0.1983 J0.0021
G2 X204.9874 I0.0016 J-2.8
G3 X205.1859 Y109.0499 I0.0001 J0.1985
G2 Y109.0529 I2.8 J0.0014
G3 X204.9875 Y109.2513 I-0.1983 J0.0001
G2 X204.9846 I-0.0012 J2.8
G3 X204.7863 Y109.053 I-0.0001 J-0.1982
G2 Y109.0498 I-2.8 J-0.0017
G3 Y109.0475 I0.1983 J-0.0001
G1 F50.0 X203.9863 Y109.039
G3 F200.0 X204.9852 Y108.0513 I0.9983 J0.0106
G2 X204.9871 I0.0011 J-2.0
G3 X205.9859 Y109.0503 I0.0004 J0.9985
G2 Y109.0524 I2.0 J0.001
G3 X204.9872 Y110.0513 I-0.9983 J0.0006
G2 X204.9851 I-0.0009 J2.0
G3 X203.9863 Y109.0525 I-0.0006 J-0.9982
G2 Y109.0502 I-2.0 J-0.0012
G3 Y109.039 I0.9983 J-0.0006
G0 Z3.0
M5
M30
