( Made using CamBam - http://www.cambam.co.uk )
( case sides - cutfiles 11/29/2015 2:21:17 PM )
( T4 : 4.0 )
G21 G90 G91.1 G64 G40
G0 Z3.0
( T4 : 4.0 )
T4 M6
( 4mm Mill Part Cutout12 )
G17
M3 S1000
G0 X220.0 Y62.8554
G0 Z1.0
G1 F50.0 Z-2.0
G1 F200.0 X214.0
G2 X212.0 Y64.8554 I0.0 J2.0
G1 Y99.8123
G1 X98.0088 Y99.8121
G3 X97.3284 Y99.5146 I0.0277 J-0.9901
G2 X97.321 Y99.5071 I-1.4298 J1.3985
G3 X97.0328 Y98.8069 I0.7096 J-0.7015
G2 X96.867 Y98.0121 I-2.0 J0.0025
G1 X96.8457 Y97.9631
G2 X96.8441 Y97.9595 I-1.8342 J0.7973
G1 X96.8227 Y97.9105
G2 X92.9901 Y98.7114 I-1.8326 J0.8009
G1 Y113.7122
G2 X93.0472 Y114.1868 I2.0 J0.0
G2 X94.4723 Y117.3159 I4.9802 J-0.3791
G2 X97.9576 Y118.8127 I3.5619 J-3.4877
G2 X97.9883 Y118.813 I0.0307 J-1.9998
G1 X216.9914 Y118.8131
G2 X217.0028 I0.0 J-2.0
G2 X220.5229 Y117.3478 I-0.0287 J-5.0297
G2 X222.0 Y113.8089 I-3.5094 J-3.5426
G2 Y113.8075 I-2.0 J-0.0015
G1 Y111.1956
G1 Y98.8066
G1 Y64.8554
G2 X220.0 Y62.8554 I-2.0 J0.0
G1 F50.0 Z-4.0
G1 F200.0 X214.0
G2 X212.0 Y64.8554 I0.0 J2.0
G1 Y99.8123
G1 X98.0088 Y99.8121
G3 X97.3284 Y99.5146 I0.0277 J-0.9901
G2 X97.321 Y99.5071 I-1.4298 J1.3985
G3 X97.0328 Y98.8069 I0.7096 J-0.7015
G2 X96.867 Y98.0121 I-2.0 J0.0025
G1 X96.8457 Y97.9631
G2 X96.8441 Y97.9595 I-1.8342 J0.7973
G1 X96.8227 Y97.9105
G2 X92.9901 Y98.7114 I-1.8326 J0.8009
G1 Y113.7122
G2 X93.0472 Y114.1868 I2.0 J0.0
G2 X94.4723 Y117.3159 I4.9802 J-0.3791
G2 X97.9576 Y118.8127 I3.5619 J-3.4877
G2 X97.9883 Y118.813 I0.0307 J-1.9998
G1 X216.9914 Y118.8131
G2 X217.0028 I0.0 J-2.0
G2 X220.5229 Y117.3478 I-0.0287 J-5.0297
G2 X222.0 Y113.8089 I-3.5094 J-3.5426
G2 Y113.8075 I-2.0 J-0.0015
G1 Y111.1956
G1 Y98.8066
G1 Y64.8554
G2 X220.0 Y62.8554 I-2.0 J0.0
G1 F50.0 Z-6.0
G1 F200.0 X214.0
G2 X212.0 Y64.8554 I0.0 J2.0
G1 Y99.8123
G1 X98.0088 Y99.8121
G3 X97.3284 Y99.5146 I0.0277 J-0.9901
G2 X97.321 Y99.5071 I-1.4298 J1.3985
G3 X97.0328 Y98.8069 I0.7096 J-0.7015
G2 X96.867 Y98.0121 I-2.0 J0.0025
G1 X96.8457 Y97.9631
G2 X96.8441 Y97.9595 I-1.8342 J0.7973
G1 X96.8227 Y97.9105
G2 X92.9901 Y98.7114 I-1.8326 J0.8009
G1 Y113.7122
G2 X93.0472 Y114.1868 I2.0 J0.0
G2 X94.4723 Y117.3159 I4.9802 J-0.3791
G2 X97.9576 Y118.8127 I3.5619 J-3.4877
G2 X97.9883 Y118.813 I0.0307 J-1.9998
G1 X216.9914 Y118.8131
G2 X217.0028 I0.0 J-2.0
G2 X220.5229 Y117.3478 I-0.0287 J-5.0297
G2 X222.0 Y113.8089 I-3.5094 J-3.5426
G2 Y113.8075 I-2.0 J-0.0015
G1 Y111.1956
G1 Y98.8066
G1 Y64.8554
G2 X220.0 Y62.8554 I-2.0 J0.0
( 4mm Mill Part Cutout )
S1000
G0 Z3.0
G0 X103.895 Y37.7199
G0 Z1.0
G1 F50.0 Z-2.0
G1 F200.0 X145.052
G2 X147.052 Y35.7199 I0.0 J-2.0
G1 Y20.7344
G2 X145.052 Y18.7344 I-2.0 J0.0
G1 X103.582
G2 X103.1242 Y18.7875 I0.0 J2.0
G2 X99.9639 Y20.2132 I0.3197 J4.924
G2 X98.5181 Y23.3068 I3.4662 J3.5046
G2 X98.4578 Y23.8215 I1.9395 J0.4882
G1 X98.459 Y23.9123
G1 Y38.7774
G2 X102.2849 Y39.5934 I2.0 J0.0
G1 X102.327 Y39.4994
G2 X102.501 Y38.6971 I-1.826 J-0.816
G3 X102.7776 Y38.0415 I0.9303 J0.0064
G2 X102.7841 Y38.035 I-1.4053 J-1.4231
G3 X103.4438 Y37.7623 I0.6601 J0.6623
G1 X103.4855
G2 X103.895 Y37.7199 I0.0 J-2.0
G1 F50.0 Z-4.0
G1 F200.0 X145.052
G2 X147.052 Y35.7199 I0.0 J-2.0
G1 Y20.7344
G2 X145.052 Y18.7344 I-2.0 J0.0
G1 X103.582
G2 X103.1242 Y18.7875 I0.0 J2.0
G2 X99.9639 Y20.2132 I0.3197 J4.924
G2 X98.5181 Y23.3068 I3.4662 J3.5046
G2 X98.4578 Y23.8215 I1.9395 J0.4882
G1 X98.459 Y23.9123
G1 Y38.7774
G2 X102.2849 Y39.5934 I2.0 J0.0
G1 X102.327 Y39.4994
G2 X102.501 Y38.6971 I-1.826 J-0.816
G3 X102.7776 Y38.0415 I0.9303 J0.0064
G2 X102.7841 Y38.035 I-1.4053 J-1.4231
G3 X103.4438 Y37.7623 I0.6601 J0.6623
G1 X103.4855
G2 X103.895 Y37.7199 I0.0 J-2.0
G1 F50.0 Z-6.0
G1 F200.0 X145.052
G2 X147.052 Y35.7199 I0.0 J-2.0
G1 Y20.7344
G2 X145.052 Y18.7344 I-2.0 J0.0
G1 X103.582
G2 X103.1242 Y18.7875 I0.0 J2.0
G2 X99.9639 Y20.2132 I0.3197 J4.924
G2 X98.5181 Y23.3068 I3.4662 J3.5046
G2 X98.4578 Y23.8215 I1.9395 J0.4882
G1 X98.459 Y23.9123
G1 Y38.7774
G2 X102.2849 Y39.5934 I2.0 J0.0
G1 X102.327 Y39.4994
G2 X102.501 Y38.6971 I-1.826 J-0.816
G3 X102.7776 Y38.0415 I0.9303 J0.0064
G2 X102.7841 Y38.035 I-1.4053 J-1.4231
G3 X103.4438 Y37.7623 I0.6601 J0.6623
G1 X103.4855
G2 X103.895 Y37.7199 I0.0 J-2.0
( 4mm Mill Part Cutout1 )
S1000
G0 Z3.0
G0 X158.2217 Y37.9166
G0 Z1.0
G1 F50.0 Z-2.0
G1 F200.0 X199.377
G2 X201.377 Y35.9166 I0.0 J-2.0
G1 Y20.9311
G2 X199.377 Y18.9311 I-2.0 J0.0
G1 X157.907
G2 X157.4491 Y18.9842 I0.0 J2.0
G2 X154.2891 Y20.4098 I0.3201 J4.9247
G2 X152.8434 Y23.5039 I3.465 J3.5038
G2 X152.7831 Y24.0182 I1.9396 J0.4879
G1 X152.7844 Y24.109
G1 Y38.9745
G2 X156.6114 Y39.788 I2.0 J0.0
G1 X156.6535 Y39.6936
G2 X156.8263 Y38.8939 I-1.8271 J-0.8135
G3 X157.1029 Y38.2383 I0.9306 J0.0064
G2 X157.1095 Y38.2318 I-1.4055 J-1.4229
G3 X157.7686 Y37.9593 I0.6591 J0.6612
G1 X157.7685
G1 X157.7686
G1 X157.8105
G2 X158.2217 Y37.9166 I0.0 J-2.0
G1 F50.0 Z-4.0
G1 F200.0 X199.377
G2 X201.377 Y35.9166 I0.0 J-2.0
G1 Y20.9311
G2 X199.377 Y18.9311 I-2.0 J0.0
G1 X157.907
G2 X157.4491 Y18.9842 I0.0 J2.0
G2 X154.2891 Y20.4098 I0.3201 J4.9247
G2 X152.8434 Y23.5039 I3.465 J3.5038
G2 X152.7831 Y24.0182 I1.9396 J0.4879
G1 X152.7844 Y24.109
G1 Y38.9745
G2 X156.6114 Y39.788 I2.0 J0.0
G1 X156.6535 Y39.6936
G2 X156.8263 Y38.8939 I-1.8271 J-0.8135
G3 X157.1029 Y38.2383 I0.9306 J0.0064
G2 X157.1095 Y38.2318 I-1.4055 J-1.4229
G3 X157.7686 Y37.9593 I0.6591 J0.6612
G1 X157.7685
G1 X157.7686
G1 X157.8105
G2 X158.2217 Y37.9166 I0.0 J-2.0
G1 F50.0 Z-6.0
G1 F200.0 X199.377
G2 X201.377 Y35.9166 I0.0 J-2.0
G1 Y20.9311
G2 X199.377 Y18.9311 I-2.0 J0.0
G1 X157.907
G2 X157.4491 Y18.9842 I0.0 J2.0
G2 X154.2891 Y20.4098 I0.3201 J4.9247
G2 X152.8434 Y23.5039 I3.465 J3.5038
G2 X152.7831 Y24.0182 I1.9396 J0.4879
G1 X152.7844 Y24.109
G1 Y38.9745
G2 X156.6114 Y39.788 I2.0 J0.0
G1 X156.6535 Y39.6936
G2 X156.8263 Y38.8939 I-1.8271 J-0.8135
G3 X157.1029 Y38.2383 I0.9306 J0.0064
G2 X157.1095 Y38.2318 I-1.4055 J-1.4229
G3 X157.7686 Y37.9593 I0.6591 J0.6612
G1 X157.7685
G1 X157.7686
G1 X157.8105
G2 X158.2217 Y37.9166 I0.0 J-2.0
( 4mm Mill Part Cutout2 )
S1000
G0 Z3.0
G0 X83.9435 Y54.1385
G0 Z1.0
G1 F50.0 Z-2.0
G1 F200.0 X89.9435
G2 X91.9435 Y52.1385 I0.0 J-2.0
G1 Y17.1816
G1 X205.9348 Y17.1813
G3 X206.6153 Y17.4789 I-0.0279 J0.9907
G2 X206.6232 Y17.4869 I1.4297 J-1.3985
G3 X206.9109 Y18.186 I-0.7076 J0.7
G2 X207.077 Y18.9819 I2.0 J-0.002
G1 X207.1197 Y19.0801
G2 X210.9537 Y18.2822 I1.8339 J-0.7979
G1 Y3.2812
G2 X210.8964 Y2.8062 I-2.0 J0.0
G2 X209.4715 Y-0.3222 I-4.9819 J0.3804
G2 X205.9863 Y-1.8191 I-3.5623 J3.4882
G2 X205.9554 Y-1.8194 I-0.0309 J1.9998
G1 X86.9523 Y-1.819
G2 X86.9404 I0.0 J2.0
G2 X83.421 Y-0.354 I0.03 J5.032
G2 X81.9435 Y3.1844 I3.5108 J3.5435
G2 Y3.1865 I2.0 J0.0021
G1 Y5.7985
G1 Y18.1871
G1 Y52.1385
G2 X83.9435 Y54.1385 I2.0 J0.0
G1 F50.0 Z-4.0
G1 F200.0 X89.9435
G2 X91.9435 Y52.1385 I0.0 J-2.0
G1 Y17.1816
G1 X205.9348 Y17.1813
G3 X206.6153 Y17.4789 I-0.0279 J0.9907
G2 X206.6232 Y17.4869 I1.4297 J-1.3985
G3 X206.9109 Y18.186 I-0.7076 J0.7
G2 X207.077 Y18.9819 I2.0 J-0.002
G1 X207.1197 Y19.0801
G2 X210.9537 Y18.2822 I1.8339 J-0.7979
G1 Y3.2812
G2 X210.8964 Y2.8062 I-2.0 J0.0
G2 X209.4715 Y-0.3222 I-4.9819 J0.3804
G2 X205.9863 Y-1.8191 I-3.5623 J3.4882
G2 X205.9554 Y-1.8194 I-0.0309 J1.9998
G1 X86.9523 Y-1.819
G2 X86.9404 I0.0 J2.0
G2 X83.421 Y-0.354 I0.03 J5.032
G2 X81.9435 Y3.1844 I3.5108 J3.5435
G2 Y3.1865 I2.0 J0.0021
G1 Y5.7985
G1 Y18.1871
G1 Y52.1385
G2 X83.9435 Y54.1385 I2.0 J0.0
G1 F50.0 Z-6.0
G1 F200.0 X89.9435
G2 X91.9435 Y52.1385 I0.0 J-2.0
G1 Y17.1816
G1 X205.9348 Y17.1813
G3 X206.6153 Y17.4789 I-0.0279 J0.9907
G2 X206.6232 Y17.4869 I1.4297 J-1.3985
G3 X206.9109 Y18.186 I-0.7076 J0.7
G2 X207.077 Y18.9819 I2.0 J-0.002
G1 X207.1197 Y19.0801
G2 X210.9537 Y18.2822 I1.8339 J-0.7979
G1 Y3.2812
G2 X210.8964 Y2.8062 I-2.0 J0.0
G2 X209.4715 Y-0.3222 I-4.9819 J0.3804
G2 X205.9863 Y-1.8191 I-3.5623 J3.4882
G2 X205.9554 Y-1.8194 I-0.0309 J1.9998
G1 X86.9523 Y-1.819
G2 X86.9404 I0.0 J2.0
G2 X83.421 Y-0.354 I0.03 J5.032
G2 X81.9435 Y3.1844 I3.5108 J3.5435
G2 Y3.1865 I2.0 J0.0021
G1 Y5.7985
G1 Y18.1871
G1 Y52.1385
G2 X83.9435 Y54.1385 I2.0 J0.0
( 4mm Mill Part Cutout3 )
S1000
G0 Z3.0
G0 X61.3803 Y40.3272
G0 Z1.0
G1 F50.0 Z-2.0
G2 F200.0 X61.8333 Y40.3792 I0.453 J-1.948
G1 X78.8462
G2 X80.8462 Y38.3792 I0.0 J-2.0
G1 Y23.3937
G2 X78.8461 Y21.3937 I-2.0 J0.0
G1 X62.1479 Y21.394
G2 X61.7368 Y21.3513 I-0.4111 J1.9573
G1 X61.6851
G2 X61.6837 I0.0 J2.0
G3 X61.0067 Y21.074 I-0.0007 J-0.9633
G2 X61.0003 Y21.0676 I-1.4042 J1.4242
G3 X60.7219 Y20.413 I0.646 J-0.6611
G2 X56.722 Y20.4271 I-2.0 J0.0141
G1 Y35.4122
G2 Y35.4266 I2.0 J0.0
G2 X58.2016 Y38.9108 I4.9253 J-0.0353
G2 X61.3803 Y40.3272 I3.4817 J-3.5385
G1 F50.0 Z-4.0
G2 F200.0 X61.8333 Y40.3792 I0.453 J-1.948
G1 X78.8462
G2 X80.8462 Y38.3792 I0.0 J-2.0
G1 Y23.3937
G2 X78.8461 Y21.3937 I-2.0 J0.0
G1 X62.1479 Y21.394
G2 X61.7368 Y21.3513 I-0.4111 J1.9573
G1 X61.6851
G2 X61.6837 I0.0 J2.0
G3 X61.0067 Y21.074 I-0.0007 J-0.9633
G2 X61.0003 Y21.0676 I-1.4042 J1.4242
G3 X60.7219 Y20.413 I0.646 J-0.6611
G2 X56.722 Y20.4271 I-2.0 J0.0141
G1 Y35.4122
G2 Y35.4266 I2.0 J0.0
G2 X58.2016 Y38.9108 I4.9253 J-0.0353
G2 X61.3803 Y40.3272 I3.4817 J-3.5385
G1 F50.0 Z-6.0
G2 F200.0 X61.8333 Y40.3792 I0.453 J-1.948
G1 X78.8462
G2 X80.8462 Y38.3792 I0.0 J-2.0
G1 Y23.3937
G2 X78.8461 Y21.3937 I-2.0 J0.0
G1 X62.1479 Y21.394
G2 X61.7368 Y21.3513 I-0.4111 J1.9573
G1 X61.6851
G2 X61.6837 I0.0 J2.0
G3 X61.0067 Y21.074 I-0.0007 J-0.9633
G2 X61.0003 Y21.0676 I-1.4042 J1.4242
G3 X60.7219 Y20.413 I0.646 J-0.6611
G2 X56.722 Y20.4271 I-2.0 J0.0141
G1 Y35.4122
G2 Y35.4266 I2.0 J0.0
G2 X58.2016 Y38.9108 I4.9253 J-0.0353
G2 X61.3803 Y40.3272 I3.4817 J-3.5385
( 4mm Mill Part Cutout9 )
S1000
G0 Z3.0
G0 X76.201 Y-1.9324
G0 Z1.0
G1 F50.0 Z-2.0
G2 F200.0 X75.748 Y-1.9844 I-0.453 J1.948
G1 X58.7351
G2 X56.7351 Y0.0156 I0.0 J2.0
G1 Y15.0011
G2 X58.7351 Y17.0011 I2.0 J0.0
G1 X75.4333 Y17.0007
G2 X75.8445 Y17.0435 I0.4111 J-1.9573
G1 X75.8961
G2 X75.8976 I0.0 J-2.0
G3 X76.5745 Y17.3208 I0.0007 J0.9633
G2 X76.581 Y17.3271 I1.4042 J-1.4242
G3 X76.8593 Y17.9817 I-0.646 J0.6611
G2 X80.8593 Y17.9677 I2.0 J-0.0141
G1 Y2.9825
G2 X80.8592 Y2.9682 I-2.0 J0.0
G2 X79.3797 Y-0.516 I-4.9253 J0.0353
G2 X76.201 Y-1.9324 I-3.4817 J3.5385
G1 F50.0 Z-4.0
G2 F200.0 X75.748 Y-1.9844 I-0.453 J1.948
G1 X58.7351
G2 X56.7351 Y0.0156 I0.0 J2.0
G1 Y15.0011
G2 X58.7351 Y17.0011 I2.0 J0.0
G1 X75.4333 Y17.0007
G2 X75.8445 Y17.0435 I0.4111 J-1.9573
G1 X75.8961
G2 X75.8976 I0.0 J-2.0
G3 X76.5745 Y17.3208 I0.0007 J0.9633
G2 X76.581 Y17.3271 I1.4042 J-1.4242
G3 X76.8593 Y17.9817 I-0.646 J0.6611
G2 X80.8593 Y17.9677 I2.0 J-0.0141
G1 Y2.9825
G2 X80.8592 Y2.9682 I-2.0 J0.0
G2 X79.3797 Y-0.516 I-4.9253 J0.0353
G2 X76.201 Y-1.9324 I-3.4817 J3.5385
G1 F50.0 Z-6.0
G2 F200.0 X75.748 Y-1.9844 I-0.453 J1.948
G1 X58.7351
G2 X56.7351 Y0.0156 I0.0 J2.0
G1 Y15.0011
G2 X58.7351 Y17.0011 I2.0 J0.0
G1 X75.4333 Y17.0007
G2 X75.8445 Y17.0435 I0.4111 J-1.9573
G1 X75.8961
G2 X75.8976 I0.0 J-2.0
G3 X76.5745 Y17.3208 I0.0007 J0.9633
G2 X76.581 Y17.3271 I1.4042 J-1.4242
G3 X76.8593 Y17.9817 I-0.646 J0.6611
G2 X80.8593 Y17.9677 I2.0 J-0.0141
G1 Y2.9825
G2 X80.8592 Y2.9682 I-2.0 J0.0
G2 X79.3797 Y-0.516 I-4.9253 J0.0353
G2 X76.201 Y-1.9324 I-3.4817 J3.5385
( 4mm Mill Part Cutout4 )
S1000
G0 Z3.0
G0 X46.7765 Y19.8744
G0 Z1.0
G1 F50.0 Z-2.0
G1 F200.0 X5.6212
G2 X3.6212 Y21.8744 I0.0 J2.0
G1 Y36.8599
G2 X5.6212 Y38.8599 I2.0 J0.0
G1 X47.0912
G2 X47.5489 Y38.8068 I0.0 J-2.0
G2 X50.7092 Y37.3811 I-0.3197 J-4.924
G2 X52.155 Y34.2875 I-3.4662 J-3.5046
G2 X52.2154 Y33.7728 I-1.9395 J-0.4882
G1 X52.2142 Y33.682
G1 Y18.8165
G2 X48.3871 Y18.003 I-2.0 J0.0
G1 X48.3451 Y18.0974
G2 X48.1722 Y18.8968 I1.8271 J0.8135
G3 X47.8954 Y19.5526 I-0.9308 J-0.0066
G2 X47.8889 Y19.559 I1.4053 J1.423
G3 X47.2295 Y19.8317 I-0.6598 J-0.662
G1 X47.1876
G2 X46.7765 Y19.8744 I0.0 J2.0
G1 F50.0 Z-4.0
G1 F200.0 X5.6212
G2 X3.6212 Y21.8744 I0.0 J2.0
G1 Y36.8599
G2 X5.6212 Y38.8599 I2.0 J0.0
G1 X47.0912
G2 X47.5489 Y38.8068 I0.0 J-2.0
G2 X50.7092 Y37.3811 I-0.3197 J-4.924
G2 X52.155 Y34.2875 I-3.4662 J-3.5046
G2 X52.2154 Y33.7728 I-1.9395 J-0.4882
G1 X52.2142 Y33.682
G1 Y18.8165
G2 X48.3871 Y18.003 I-2.0 J0.0
G1 X48.3451 Y18.0974
G2 X48.1722 Y18.8968 I1.8271 J0.8135
G3 X47.8954 Y19.5526 I-0.9308 J-0.0066
G2 X47.8889 Y19.559 I1.4053 J1.423
G3 X47.2295 Y19.8317 I-0.6598 J-0.662
G1 X47.1876
G2 X46.7765 Y19.8744 I0.0 J2.0
G1 F50.0 Z-6.0
G1 F200.0 X5.6212
G2 X3.6212 Y21.8744 I0.0 J2.0
G1 Y36.8599
G2 X5.6212 Y38.8599 I2.0 J0.0
G1 X47.0912
G2 X47.5489 Y38.8068 I0.0 J-2.0
G2 X50.7092 Y37.3811 I-0.3197 J-4.924
G2 X52.155 Y34.2875 I-3.4662 J-3.5046
G2 X52.2154 Y33.7728 I-1.9395 J-0.4882
G1 X52.2142 Y33.682
G1 Y18.8165
G2 X48.3871 Y18.003 I-2.0 J0.0
G1 X48.3451 Y18.0974
G2 X48.1722 Y18.8968 I1.8271 J0.8135
G3 X47.8954 Y19.5526 I-0.9308 J-0.0066
G2 X47.8889 Y19.559 I1.4053 J1.423
G3 X47.2295 Y19.8317 I-0.6598 J-0.662
G1 X47.1876
G2 X46.7765 Y19.8744 I0.0 J2.0
( 4mm Mill Part Cutout5 )
S1000
G0 Z3.0
G0 X2.9983 Y60.689
G0 Z1.0
G1 F50.0 Z-2.0
G1 F200.0 X59.5629 Y60.6894
G2 X61.5629 Y58.6894 I0.0 J-2.0
G1 Y43.688
G2 X59.5629 Y41.688 I-2.0 J0.0
G1 X3.0186
G3 X2.3383 Y41.3906 I0.0275 J-0.9896
G2 X2.3305 Y41.3827 I-1.4298 J1.3984
G3 X2.0427 Y40.6834 I0.708 J-0.7003
G2 X1.8756 Y39.885 I-2.0 J0.0019
G1 X1.8329 Y39.7872
G2 X-2.0 Y40.5875 I-1.8329 J0.8003
G1 Y55.5881
G2 X-1.9428 Y56.063 I2.0 J0.0
G2 X-0.5176 Y59.1921 I4.9827 J-0.3803
G2 X2.9665 Y60.6888 I3.5633 J-3.4915
G2 X2.9983 Y60.689 I0.0318 J-1.9997
G1 F50.0 Z-4.0
G1 F200.0 X59.5629 Y60.6894
G2 X61.5629 Y58.6894 I0.0 J-2.0
G1 Y43.688
G2 X59.5629 Y41.688 I-2.0 J0.0
G1 X3.0186
G3 X2.3383 Y41.3906 I0.0275 J-0.9896
G2 X2.3305 Y41.3827 I-1.4298 J1.3984
G3 X2.0427 Y40.6834 I0.708 J-0.7003
G2 X1.8756 Y39.885 I-2.0 J0.0019
G1 X1.8329 Y39.7872
G2 X-2.0 Y40.5875 I-1.8329 J0.8003
G1 Y55.5881
G2 X-1.9428 Y56.063 I2.0 J0.0
G2 X-0.5176 Y59.1921 I4.9827 J-0.3803
G2 X2.9665 Y60.6888 I3.5633 J-3.4915
G2 X2.9983 Y60.689 I0.0318 J-1.9997
G1 F50.0 Z-6.0
G1 F200.0 X59.5629 Y60.6894
G2 X61.5629 Y58.6894 I0.0 J-2.0
G1 Y43.688
G2 X59.5629 Y41.688 I-2.0 J0.0
G1 X3.0186
G3 X2.3383 Y41.3906 I0.0275 J-0.9896
G2 X2.3305 Y41.3827 I-1.4298 J1.3984
G3 X2.0427 Y40.6834 I0.708 J-0.7003
G2 X1.8756 Y39.885 I-2.0 J0.0019
G1 X1.8329 Y39.7872
G2 X-2.0 Y40.5875 I-1.8329 J0.8003
G1 Y55.5881
G2 X-1.9428 Y56.063 I2.0 J0.0
G2 X-0.5176 Y59.1921 I4.9827 J-0.3803
G2 X2.9665 Y60.6888 I3.5633 J-3.4915
G2 X2.9983 Y60.689 I0.0318 J-1.9997
( 4mm Mill Part Cutout6 )
S1000
G0 Z3.0
G0 X220.0 Y5.898
G0 Z1.0
G1 F50.0 Z-2.0
G1 F200.0 X214.0
G2 X212.0 Y7.898 I0.0 J2.0
G1 Y42.8549
G1 X98.0083 Y42.8546
G3 X97.3289 Y42.5576 I0.0271 J-0.9875
G2 X97.3204 Y42.5489 I-1.4303 J1.3979
G3 X97.0328 Y41.8501 I0.7072 J-0.6996
G2 X96.8675 Y41.0557 I-2.0 J0.0017
G1 X96.8462 Y41.0066
G2 X96.8447 Y41.003 I-1.8347 J0.7962
G1 X96.8232 Y40.9539
G2 X92.9901 Y41.7536 I-1.8332 J0.7997
G1 Y56.7546
G2 X93.0473 Y57.2295 I2.0 J0.0
G2 X94.4722 Y60.3583 I4.9823 J-0.3802
G2 X97.9574 Y61.8553 I3.5623 J-3.4879
G2 X97.9883 Y61.8555 I0.0309 J-1.9998
G1 X216.9911
G2 X217.0022 I0.0 J-2.0
G2 X220.5228 Y60.3903 I-0.028 J-5.0295
G2 X222.0 Y56.8522 I-3.5112 J-3.5435
G2 Y56.85 I-2.0 J-0.0021
G1 Y54.238
G1 Y41.8491
G1 Y7.898
G2 X220.0 Y5.898 I-2.0 J0.0
G1 F50.0 Z-4.0
G1 F200.0 X214.0
G2 X212.0 Y7.898 I0.0 J2.0
G1 Y42.8549
G1 X98.0083 Y42.8546
G3 X97.3289 Y42.5576 I0.0271 J-0.9875
G2 X97.3204 Y42.5489 I-1.4303 J1.3979
G3 X97.0328 Y41.8501 I0.7072 J-0.6996
G2 X96.8675 Y41.0557 I-2.0 J0.0017
G1 X96.8462 Y41.0066
G2 X96.8447 Y41.003 I-1.8347 J0.7962
G1 X96.8232 Y40.9539
G2 X92.9901 Y41.7536 I-1.8332 J0.7997
G1 Y56.7546
G2 X93.0473 Y57.2295 I2.0 J0.0
G2 X94.4722 Y60.3583 I4.9823 J-0.3802
G2 X97.9574 Y61.8553 I3.5623 J-3.4879
G2 X97.9883 Y61.8555 I0.0309 J-1.9998
G1 X216.9911
G2 X217.0022 I0.0 J-2.0
G2 X220.5228 Y60.3903 I-0.028 J-5.0295
G2 X222.0 Y56.8522 I-3.5112 J-3.5435
G2 Y56.85 I-2.0 J-0.0021
G1 Y54.238
G1 Y41.8491
G1 Y7.898
G2 X220.0 Y5.898 I-2.0 J0.0
G1 F50.0 Z-6.0
G1 F200.0 X214.0
G2 X212.0 Y7.898 I0.0 J2.0
G1 Y42.8549
G1 X98.0083 Y42.8546
G3 X97.3289 Y42.5576 I0.0271 J-0.9875
G2 X97.3204 Y42.5489 I-1.4303 J1.3979
G3 X97.0328 Y41.8501 I0.7072 J-0.6996
G2 X96.8675 Y41.0557 I-2.0 J0.0017
G1 X96.8462 Y41.0066
G2 X96.8447 Y41.003 I-1.8347 J0.7962
G1 X96.8232 Y40.9539
G2 X92.9901 Y41.7536 I-1.8332 J0.7997
G1 Y56.7546
G2 X93.0473 Y57.2295 I2.0 J0.0
G2 X94.4722 Y60.3583 I4.9823 J-0.3802
G2 X97.9574 Y61.8553 I3.5623 J-3.4879
G2 X97.9883 Y61.8555 I0.0309 J-1.9998
G1 X216.9911
G2 X217.0022 I0.0 J-2.0
G2 X220.5228 Y60.3903 I-0.028 J-5.0295
G2 X222.0 Y56.8522 I-3.5112 J-3.5435
G2 Y56.85 I-2.0 J-0.0021
G1 Y54.238
G1 Y41.8491
G1 Y7.898
G2 X220.0 Y5.898 I-2.0 J0.0
( 4mm Mill Part Cutout7 )
S1000
G0 Z3.0
G0 X83.9435 Y118.8133
G0 Z1.0
G1 F50.0 Z-2.0
G1 F200.0 X89.9435
G2 X91.9435 Y116.8133 I0.0 J-2.0
G1 Y81.8564
G1 X205.9349 Y81.8566
G3 X206.6153 Y82.1541 I-0.0277 J0.9901
G2 X206.6227 Y82.1616 I1.4298 J-1.3985
G3 X206.9109 Y82.8618 I-0.7096 J0.7015
G2 X207.0767 Y83.6566 I2.0 J-0.0025
G1 X207.098 Y83.7056
G2 X207.0996 Y83.7092 I1.8342 J-0.7973
G1 X207.121 Y83.7582
G2 X210.9537 Y82.9573 I1.8326 J-0.8009
G1 Y67.9565
G2 X210.8965 Y67.4819 I-2.0 J0.0
G2 X209.4714 Y64.3528 I-4.9802 J0.3791
G2 X205.9861 Y62.856 I-3.5619 J3.4877
G2 X205.9554 Y62.8557 I-0.0307 J1.9998
G1 X86.9525 Y62.8556
G2 X86.9415 I0.0 J2.0
G2 X83.4208 Y64.3208 I0.0277 J5.0291
G2 X81.9435 Y67.8596 I3.5098 J3.5429
G2 Y67.8612 I2.0 J0.0016
G1 Y70.4731
G1 Y82.8621
G1 Y116.8133
G2 X83.9435 Y118.8133 I2.0 J0.0
G1 F50.0 Z-4.0
G1 F200.0 X89.9435
G2 X91.9435 Y116.8133 I0.0 J-2.0
G1 Y81.8564
G1 X205.9349 Y81.8566
G3 X206.6153 Y82.1541 I-0.0277 J0.9901
G2 X206.6227 Y82.1616 I1.4298 J-1.3985
G3 X206.9109 Y82.8618 I-0.7096 J0.7015
G2 X207.0767 Y83.6566 I2.0 J-0.0025
G1 X207.098 Y83.7056
G2 X207.0996 Y83.7092 I1.8342 J-0.7973
G1 X207.121 Y83.7582
G2 X210.9537 Y82.9573 I1.8326 J-0.8009
G1 Y67.9565
G2 X210.8965 Y67.4819 I-2.0 J0.0
G2 X209.4714 Y64.3528 I-4.9802 J0.3791
G2 X205.9861 Y62.856 I-3.5619 J3.4877
G2 X205.9554 Y62.8557 I-0.0307 J1.9998
G1 X86.9525 Y62.8556
G2 X86.9415 I0.0 J2.0
G2 X83.4208 Y64.3208 I0.0277 J5.0291
G2 X81.9435 Y67.8596 I3.5098 J3.5429
G2 Y67.8612 I2.0 J0.0016
G1 Y70.4731
G1 Y82.8621
G1 Y116.8133
G2 X83.9435 Y118.8133 I2.0 J0.0
G1 F50.0 Z-6.0
G1 F200.0 X89.9435
G2 X91.9435 Y116.8133 I0.0 J-2.0
G1 Y81.8564
G1 X205.9349 Y81.8566
G3 X206.6153 Y82.1541 I-0.0277 J0.9901
G2 X206.6227 Y82.1616 I1.4298 J-1.3985
G3 X206.9109 Y82.8618 I-0.7096 J0.7015
G2 X207.0767 Y83.6566 I2.0 J-0.0025
G1 X207.098 Y83.7056
G2 X207.0996 Y83.7092 I1.8342 J-0.7973
G1 X207.121 Y83.7582
G2 X210.9537 Y82.9573 I1.8326 J-0.8009
G1 Y67.9565
G2 X210.8965 Y67.4819 I-2.0 J0.0
G2 X209.4714 Y64.3528 I-4.9802 J0.3791
G2 X205.9861 Y62.856 I-3.5619 J3.4877
G2 X205.9554 Y62.8557 I-0.0307 J1.9998
G1 X86.9525 Y62.8556
G2 X86.9415 I0.0 J2.0
G2 X83.4208 Y64.3208 I0.0277 J5.0291
G2 X81.9435 Y67.8596 I3.5098 J3.5429
G2 Y67.8612 I2.0 J0.0016
G1 Y70.4731
G1 Y82.8621
G1 Y116.8133
G2 X83.9435 Y118.8133 I2.0 J0.0
( 4mm Mill Part Cutout8 )
S1000
G0 Z3.0
G0 X74.1843 Y54.036
G0 Z1.0
G1 F50.0 Z-2.0
G1 F200.0 X68.1843
G2 X66.1843 Y56.036 I0.0 J2.0
G1 Y90.993
G1 X18.3469 Y90.9929
G2 X16.3469 Y92.9929 I0.0 J2.0
G1 Y107.9939
G2 X18.3469 Y109.9939 I2.0 J0.0
G1 X71.1753
G2 X71.1864 Y109.9938 I0.0 J-2.0
G2 X74.707 Y108.5286 I-0.0277 J-5.0291
G2 X76.1843 Y104.9898 I-3.5098 J-3.5429
G2 Y104.9882 I-2.0 J-0.0016
G1 Y102.3763
G1 Y89.9874
G1 Y56.036
G2 X74.1843 Y54.036 I-2.0 J0.0
G1 F50.0 Z-4.0
G1 F200.0 X68.1843
G2 X66.1843 Y56.036 I0.0 J2.0
G1 Y90.993
G1 X18.3469 Y90.9929
G2 X16.3469 Y92.9929 I0.0 J2.0
G1 Y107.9939
G2 X18.3469 Y109.9939 I2.0 J0.0
G1 X71.1753
G2 X71.1864 Y109.9938 I0.0 J-2.0
G2 X74.707 Y108.5286 I-0.0277 J-5.0291
G2 X76.1843 Y104.9898 I-3.5098 J-3.5429
G2 Y104.9882 I-2.0 J-0.0016
G1 Y102.3763
G1 Y89.9874
G1 Y56.036
G2 X74.1843 Y54.036 I-2.0 J0.0
G1 F50.0 Z-6.0
G1 F200.0 X68.1843
G2 X66.1843 Y56.036 I0.0 J2.0
G1 Y90.993
G1 X18.3469 Y90.9929
G2 X16.3469 Y92.9929 I0.0 J2.0
G1 Y107.9939
G2 X18.3469 Y109.9939 I2.0 J0.0
G1 X71.1753
G2 X71.1864 Y109.9938 I0.0 J-2.0
G2 X74.707 Y108.5286 I-0.0277 J-5.0291
G2 X76.1843 Y104.9898 I-3.5098 J-3.5429
G2 Y104.9882 I-2.0 J-0.0016
G1 Y102.3763
G1 Y89.9874
G1 Y56.036
G2 X74.1843 Y54.036 I-2.0 J0.0
( 4mm Mill Part Cutout10 )
S1000
G0 Z3.0
G0 X3.4374 Y17.5816
G0 Z1.0
G1 F50.0 Z-2.0
G1 F200.0 X44.5943
G2 X46.5943 Y15.5816 I0.0 J-2.0
G1 Y0.5961
G2 X44.5943 Y-1.4039 I-2.0 J0.0
G1 X3.1244
G2 X2.6666 Y-1.3508 I0.0 J2.0
G2 X-0.4937 Y0.0749 I0.3197 J4.924
G2 X-1.9395 Y3.1685 I3.4662 J3.5046
G2 X-1.9998 Y3.6832 I1.9395 J0.4882
G1 X-1.9986 Y3.774
G1 Y18.6391
G2 X1.8273 Y19.4551 I2.0 J0.0
G1 X1.8694 Y19.361
G2 X2.0434 Y18.5588 I-1.826 J-0.816
G3 X2.32 Y17.9032 I0.9303 J0.0064
G2 X2.3265 Y17.8967 I-1.4053 J-1.4231
G3 X2.9862 Y17.624 I0.6601 J0.6623
G1 X3.0279
G2 X3.4374 Y17.5816 I0.0 J-2.0
G1 F50.0 Z-4.0
G1 F200.0 X44.5943
G2 X46.5943 Y15.5816 I0.0 J-2.0
G1 Y0.5961
G2 X44.5943 Y-1.4039 I-2.0 J0.0
G1 X3.1244
G2 X2.6666 Y-1.3508 I0.0 J2.0
G2 X-0.4937 Y0.0749 I0.3197 J4.924
G2 X-1.9395 Y3.1685 I3.4662 J3.5046
G2 X-1.9998 Y3.6832 I1.9395 J0.4882
G1 X-1.9986 Y3.774
G1 Y18.6391
G2 X1.8273 Y19.4551 I2.0 J0.0
G1 X1.8694 Y19.361
G2 X2.0434 Y18.5588 I-1.826 J-0.816
G3 X2.32 Y17.9032 I0.9303 J0.0064
G2 X2.3265 Y17.8967 I-1.4053 J-1.4231
G3 X2.9862 Y17.624 I0.6601 J0.6623
G1 X3.0279
G2 X3.4374 Y17.5816 I0.0 J-2.0
G1 F50.0 Z-6.0
G1 F200.0 X44.5943
G2 X46.5943 Y15.5816 I0.0 J-2.0
G1 Y0.5961
G2 X44.5943 Y-1.4039 I-2.0 J0.0
G1 X3.1244
G2 X2.6666 Y-1.3508 I0.0 J2.0
G2 X-0.4937 Y0.0749 I0.3197 J4.924
G2 X-1.9395 Y3.1685 I3.4662 J3.5046
G2 X-1.9998 Y3.6832 I1.9395 J0.4882
G1 X-1.9986 Y3.774
G1 Y18.6391
G2 X1.8273 Y19.4551 I2.0 J0.0
G1 X1.8694 Y19.361
G2 X2.0434 Y18.5588 I-1.826 J-0.816
G3 X2.32 Y17.9032 I0.9303 J0.0064
G2 X2.3265 Y17.8967 I-1.4053 J-1.4231
G3 X2.9862 Y17.624 I0.6601 J0.6623
G1 X3.0279
G2 X3.4374 Y17.5816 I0.0 J-2.0
( 4mm Mill Part Cutout11 )
S1000
G0 Z3.0
G0 X0.0 Y118.8133
G0 Z1.0
G1 F50.0 Z-2.0
G1 F200.0 X6.0
G2 X8.0 Y116.8133 I0.0 J-2.0
G1 Y81.8564
G1 X55.8374 Y81.8566
G2 X57.8374 Y79.8566 I0.0 J-2.0
G1 Y64.8556
G2 X55.8374 Y62.8556 I-2.0 J0.0
G1 X3.0089
G2 X2.9979 I0.0 J2.0
G2 X-0.5227 Y64.3208 I0.0277 J5.0291
G2 X-2.0 Y67.8596 I3.5098 J3.5429
G2 Y67.8612 I2.0 J0.0016
G1 Y70.4731
G1 Y82.8621
G1 Y116.8133
G2 X0.0 Y118.8133 I2.0 J0.0
G1 F50.0 Z-4.0
G1 F200.0 X6.0
G2 X8.0 Y116.8133 I0.0 J-2.0
G1 Y81.8564
G1 X55.8374 Y81.8566
G2 X57.8374 Y79.8566 I0.0 J-2.0
G1 Y64.8556
G2 X55.8374 Y62.8556 I-2.0 J0.0
G1 X3.0089
G2 X2.9979 I0.0 J2.0
G2 X-0.5227 Y64.3208 I0.0277 J5.0291
G2 X-2.0 Y67.8596 I3.5098 J3.5429
G2 Y67.8612 I2.0 J0.0016
G1 Y70.4731
G1 Y82.8621
G1 Y116.8133
G2 X0.0 Y118.8133 I2.0 J0.0
G1 F50.0 Z-6.0
G1 F200.0 X6.0
G2 X8.0 Y116.8133 I0.0 J-2.0
G1 Y81.8564
G1 X55.8374 Y81.8566
G2 X57.8374 Y79.8566 I0.0 J-2.0
G1 Y64.8556
G2 X55.8374 Y62.8556 I-2.0 J0.0
G1 X3.0089
G2 X2.9979 I0.0 J2.0
G2 X-0.5227 Y64.3208 I0.0277 J5.0291
G2 X-2.0 Y67.8596 I3.5098 J3.5429
G2 Y67.8612 I2.0 J0.0016
G1 Y70.4731
G1 Y82.8621
G1 Y116.8133
G2 X0.0 Y118.8133 I2.0 J0.0
G0 Z3.0
M5
M30
