( Made using CamBam - http://www.cambam.co.uk )
( case sides - cutfiles 2 11/29/2015 2:28:37 PM )
( T13 : 3.0 )
G21 G90 G91.1 G64 G40
G0 Z3.0
( T13 : 3.0 )
T13 M6
( 3mm Drill )
G17
M3 S1000
G0 X5.1099 Y7.72
G98
G81 X5.1099 Y7.72 Z-7.0 R3.0 F50.0
G81 X15.0141 Y32.3172 Z-7.0
G81 X49.5856 Y7.9168 Z-7.0
G81 X96.2191 Y8.1589 Z-7.0
G81 X108.853 Y32.3172 Z-7.0
G81 X149.3018 Y32.3029 Z-7.0
G81 X149.6362 Y8.4013 Z-7.0
G80
G0 Z3.0
M5
M30
