( Made using CamBam - http://www.cambam.co.uk )
( case sides - cutfiles 2 11/29/2015 2:29:23 PM )
( T4 : 4.0 )
G21 G90 G91.1 G64 G40
G0 Z3.0
( T4 : 4.0 )
T4 M6
( 4mm Mill Pocket )
G17
M3 S1000
G0 X15.0132 Y32.5172
G0 Z1.0
G1 F50.0 Z-2.0
G3 F200.0 X14.8137 Y32.3177 I-0.0001 J-0.1994
G2 Y32.3159 I-2.8 J-0.0006
G3 X15.0125 Y32.1172 I0.1987 J-0.0001
G2 X15.0154 I0.0014 J-2.8
G3 X15.2142 Y32.316 I0.0001 J0.1988
G2 Y32.3179 I2.8 J0.0011
G3 X15.0149 Y32.5172 I-0.1992 J0.0
G2 X15.0132 I-0.001 J2.8
G1 F50.0 X15.0134 Y33.3172
G3 F200.0 X14.0137 Y32.3176 I-0.0003 J-0.9994
G2 Y32.3163 I-2.0 J-0.0004
G3 X15.0129 Y31.3172 I0.9987 J-0.0004
G2 X15.0149 I0.001 J-2.0
G3 X16.0142 Y32.3164 I0.0005 J0.9988
G2 Y32.3177 I2.0 J0.0008
G3 X15.0146 Y33.3172 I-0.9992 J0.0003
G2 X15.0134 I-0.0007 J2.0
G1 F50.0 X15.0132 Y32.5172
G1 Z-3.2
G3 F200.0 X14.8137 Y32.3177 I-0.0001 J-0.1994
G2 Y32.3159 I-2.8 J-0.0006
G3 X15.0125 Y32.1172 I0.1987 J-0.0001
G2 X15.0154 I0.0014 J-2.8
G3 X15.2142 Y32.316 I0.0001 J0.1988
G2 Y32.3179 I2.8 J0.0011
G3 X15.0149 Y32.5172 I-0.1992 J0.0
G2 X15.0132 I-0.001 J2.8
G1 F50.0 X15.0134 Y33.3172
G3 F200.0 X14.0137 Y32.3176 I-0.0003 J-0.9994
G2 Y32.3163 I-2.0 J-0.0004
G3 X15.0129 Y31.3172 I0.9987 J-0.0004
G2 X15.0149 I0.001 J-2.0
G3 X16.0142 Y32.3164 I0.0005 J0.9988
G2 Y32.3177 I2.0 J0.0008
G3 X15.0146 Y33.3172 I-0.9992 J0.0003
G2 X15.0134 I-0.0007 J2.0
G0 Z3.0
G0 X108.653 Y32.3206
G0 Z1.0
G1 F50.0 Z-2.0
G3 F200.0 Y32.3184 I0.1986 J-0.0021
G2 Y32.3156 I-2.8 J-0.0013
G3 X108.8514 Y32.1172 I0.1983 J-0.0001
G2 X108.8544 I0.0016 J-2.8
G3 X109.0529 Y32.3157 I0.0001 J0.1984
G2 Y32.3181 I2.8 J0.0014
G3 X108.8539 Y32.5172 I-0.199 J0.0001
G2 X108.8517 I-0.001 J2.8
G3 X108.653 Y32.3206 I-0.0001 J-0.1986
G1 F50.0 X107.853 Y32.3291
G3 F200.0 Y32.3181 I0.9986 J-0.0106
G2 Y32.316 I-2.0 J-0.0009
G3 X108.8518 Y31.3172 I0.9983 J-0.0006
G2 X108.854 I0.0011 J-2.0
G3 X109.8529 Y32.3161 I0.0005 J0.9984
G2 Y32.3179 I2.0 J0.001
G3 X108.8536 Y33.3172 I-0.999 J0.0003
G2 X108.8521 I-0.0007 J2.0
G3 X107.853 Y32.3291 I-0.0005 J-0.9986
G1 F50.0 X108.653 Y32.3206
G1 Z-3.2
G3 F200.0 Y32.3184 I0.1986 J-0.0021
G2 Y32.3156 I-2.8 J-0.0013
G3 X108.8514 Y32.1172 I0.1983 J-0.0001
G2 X108.8544 I0.0016 J-2.8
G3 X109.0529 Y32.3157 I0.0001 J0.1984
G2 Y32.3181 I2.8 J0.0014
G3 X108.8539 Y32.5172 I-0.199 J0.0001
G2 X108.8517 I-0.001 J2.8
G3 X108.653 Y32.3206 I-0.0001 J-0.1986
G1 F50.0 X107.853 Y32.3291
G3 F200.0 Y32.3181 I0.9986 J-0.0106
G2 Y32.316 I-2.0 J-0.0009
G3 X108.8518 Y31.3172 I0.9983 J-0.0006
G2 X108.854 I0.0011 J-2.0
G3 X109.8529 Y32.3161 I0.0005 J0.9984
G2 Y32.3179 I2.0 J0.001
G3 X108.8536 Y33.3172 I-0.999 J0.0003
G2 X108.8521 I-0.0007 J2.0
G3 X107.853 Y32.3291 I-0.0005 J-0.9986
( 4mm Mill Part Cutout6 )
S1000
G0 Z3.0
G0 X136.1429 Y42.0643
G0 Z1.0
G1 F50.0 Z-2.0
G1 F200.0 X192.7073 Y42.0647
G2 X194.7073 Y40.0647 I0.0 J-2.0
G1 Y25.0637
G2 X192.7073 Y23.0637 I-2.0 J0.0
G1 X136.1629
G3 X135.4832 Y22.7666 I0.027 J-0.9879
G2 X135.4751 Y22.7584 I-1.4302 J1.3981
G3 X135.187 Y22.0586 I0.7089 J-0.701
G2 X135.0207 Y21.2624 I-2.0 J0.0023
G1 X134.9994 Y21.2135
G2 X134.9979 Y21.21 I-1.8337 J0.7985
G1 X134.9765 Y21.161
G2 X131.1443 Y21.9631 I-1.8321 J0.8021
G1 Y36.9637
G2 X131.2015 Y37.4386 I2.0 J0.0
G2 X132.6272 Y40.568 I4.9816 J-0.38
G2 X136.111 Y42.0641 I3.5635 J-3.4938
G2 X136.1429 Y42.0643 I0.0319 J-1.9997
G1 F50.0 Z-4.0
G1 F200.0 X192.7073 Y42.0647
G2 X194.7073 Y40.0647 I0.0 J-2.0
G1 Y25.0637
G2 X192.7073 Y23.0637 I-2.0 J0.0
G1 X136.1629
G3 X135.4832 Y22.7666 I0.027 J-0.9879
G2 X135.4751 Y22.7584 I-1.4302 J1.3981
G3 X135.187 Y22.0586 I0.7089 J-0.701
G2 X135.0207 Y21.2624 I-2.0 J0.0023
G1 X134.9994 Y21.2135
G2 X134.9979 Y21.21 I-1.8337 J0.7985
G1 X134.9765 Y21.161
G2 X131.1443 Y21.9631 I-1.8321 J0.8021
G1 Y36.9637
G2 X131.2015 Y37.4386 I2.0 J0.0
G2 X132.6272 Y40.568 I4.9816 J-0.38
G2 X136.111 Y42.0641 I3.5635 J-3.4938
G2 X136.1429 Y42.0643 I0.0319 J-1.9997
G1 F50.0 Z-6.0
G1 F200.0 X192.7073 Y42.0647
G2 X194.7073 Y40.0647 I0.0 J-2.0
G1 Y25.0637
G2 X192.7073 Y23.0637 I-2.0 J0.0
G1 X136.1629
G3 X135.4832 Y22.7666 I0.027 J-0.9879
G2 X135.4751 Y22.7584 I-1.4302 J1.3981
G3 X135.187 Y22.0586 I0.7089 J-0.701
G2 X135.0207 Y21.2624 I-2.0 J0.0023
G1 X134.9994 Y21.2135
G2 X134.9979 Y21.21 I-1.8337 J0.7985
G1 X134.9765 Y21.161
G2 X131.1443 Y21.9631 I-1.8321 J0.8021
G1 Y36.9637
G2 X131.2015 Y37.4386 I2.0 J0.0
G2 X132.6272 Y40.568 I4.9816 J-0.38
G2 X136.111 Y42.0641 I3.5635 J-3.4938
G2 X136.1429 Y42.0643 I0.0319 J-1.9997
( 4mm Mill Part Cutout5 )
S1000
G0 Z3.0
G0 X2.6586 Y41.9836
G0 Z1.0
G1 F50.0 Z-2.0
G2 F200.0 X3.1113 Y42.0356 I0.4527 J-1.9481
G1 X17.9067
G1 X20.124
G1 X80.4171
G1 X93.7469
G1 X121.8871
G2 X122.345 Y41.9824 I0.0 J-2.0
G2 X125.505 Y40.5568 I-0.3201 J-4.9247
G2 X126.9507 Y37.4628 I-3.465 J-3.5038
G2 X127.011 Y36.9484 I-1.9396 J-0.4879
G1 X127.0098 Y36.8576
G1 Y21.9922
G2 X123.1827 Y21.1787 I-2.0 J0.0
G1 X123.1407 Y21.2731
G2 X122.9678 Y22.0728 I1.8271 J0.8135
G3 X122.6912 Y22.7284 I-0.9306 J-0.0064
G2 X122.6846 Y22.7349 I1.4055 J1.4229
G3 X122.0256 Y23.0074 I-0.6591 J-0.6612
G1 X122.0255
G1 X122.0256
G1 X121.9836
G2 X121.5724 Y23.0501 I0.0 J2.0
G1 X94.1581
G2 X93.7469 Y23.0074 I-0.4112 J1.9573
G1 X17.9067
G2 X17.4956 Y23.0501 I0.0 J2.0
G1 X3.426
G2 X3.0148 Y23.0074 I-0.4112 J1.9573
G1 X2.9635
G2 X2.963 I0.0 J2.0
G3 X2.2837 Y22.7292 I-0.0002 J-0.968
G2 X2.2783 Y22.7239 I-1.4031 J1.4253
G3 X2.0 Y22.0692 I0.646 J-0.6612
G2 X-2.0 Y22.0832 I-2.0 J0.014
G1 Y37.0686
G2 Y37.0821 I2.0 J0.0
G2 X-0.5202 Y40.5674 I4.9224 J-0.033
G2 X2.6586 Y41.9836 I3.4807 J-3.537
G1 F50.0 Z-4.0
G2 F200.0 X3.1113 Y42.0356 I0.4527 J-1.9481
G1 X17.9067
G1 X20.124
G1 X80.4171
G1 X93.7469
G1 X121.8871
G2 X122.345 Y41.9824 I0.0 J-2.0
G2 X125.505 Y40.5568 I-0.3201 J-4.9247
G2 X126.9507 Y37.4628 I-3.465 J-3.5038
G2 X127.011 Y36.9484 I-1.9396 J-0.4879
G1 X127.0098 Y36.8576
G1 Y21.9922
G2 X123.1827 Y21.1787 I-2.0 J0.0
G1 X123.1407 Y21.2731
G2 X122.9678 Y22.0728 I1.8271 J0.8135
G3 X122.6912 Y22.7284 I-0.9306 J-0.0064
G2 X122.6846 Y22.7349 I1.4055 J1.4229
G3 X122.0256 Y23.0074 I-0.6591 J-0.6612
G1 X122.0255
G1 X122.0256
G1 X121.9836
G2 X121.5724 Y23.0501 I0.0 J2.0
G1 X94.1581
G2 X93.7469 Y23.0074 I-0.4112 J1.9573
G1 X17.9067
G2 X17.4956 Y23.0501 I0.0 J2.0
G1 X3.426
G2 X3.0148 Y23.0074 I-0.4112 J1.9573
G1 X2.9635
G2 X2.963 I0.0 J2.0
G3 X2.2837 Y22.7292 I-0.0002 J-0.968
G2 X2.2783 Y22.7239 I-1.4031 J1.4253
G3 X2.0 Y22.0692 I0.646 J-0.6612
G2 X-2.0 Y22.0832 I-2.0 J0.014
G1 Y37.0686
G2 Y37.0821 I2.0 J0.0
G2 X-0.5202 Y40.5674 I4.9224 J-0.033
G2 X2.6586 Y41.9836 I3.4807 J-3.537
G1 F50.0 Z-6.0
G2 F200.0 X3.1113 Y42.0356 I0.4527 J-1.9481
G1 X17.9067
G1 X20.124
G1 X80.4171
G1 X93.7469
G1 X121.8871
G2 X122.345 Y41.9824 I0.0 J-2.0
G2 X125.505 Y40.5568 I-0.3201 J-4.9247
G2 X126.9507 Y37.4628 I-3.465 J-3.5038
G2 X127.011 Y36.9484 I-1.9396 J-0.4879
G1 X127.0098 Y36.8576
G1 Y21.9922
G2 X123.1827 Y21.1787 I-2.0 J0.0
G1 X123.1407 Y21.2731
G2 X122.9678 Y22.0728 I1.8271 J0.8135
G3 X122.6912 Y22.7284 I-0.9306 J-0.0064
G2 X122.6846 Y22.7349 I1.4055 J1.4229
G3 X122.0256 Y23.0074 I-0.6591 J-0.6612
G1 X122.0255
G1 X122.0256
G1 X121.9836
G2 X121.5724 Y23.0501 I0.0 J2.0
G1 X94.1581
G2 X93.7469 Y23.0074 I-0.4112 J1.9573
G1 X17.9067
G2 X17.4956 Y23.0501 I0.0 J2.0
G1 X3.426
G2 X3.0148 Y23.0074 I-0.4112 J1.9573
G1 X2.9635
G2 X2.963 I0.0 J2.0
G3 X2.2837 Y22.7292 I-0.0002 J-0.968
G2 X2.2783 Y22.7239 I-1.4031 J1.4253
G3 X2.0 Y22.0692 I0.646 J-0.6612
G2 X-2.0 Y22.0832 I-2.0 J0.014
G1 Y37.0686
G2 Y37.0821 I2.0 J0.0
G2 X-0.5202 Y40.5674 I4.9224 J-0.033
G2 X2.6586 Y41.9836 I3.4807 J-3.537
( 4mm Mill Part Cutout1 )
S1000
G0 Z3.0
G0 X108.5749 Y-1.5075
G0 Z1.0
G1 F50.0 Z-2.0
G2 F200.0 X108.1219 Y-1.5594 I-0.453 J1.948
G1 X91.109
G2 X89.109 Y0.4406 I0.0 J2.0
G1 Y15.426
G2 X91.109 Y17.426 I2.0 J0.0
G1 X107.8072
G2 X108.2184 Y17.4688 I0.4112 J-1.9573
G1 X108.27
G2 X108.2712 I0.0 J-2.0
G3 X108.9488 Y17.7463 I0.0006 J0.9645
G2 X108.955 Y17.7524 I1.4038 J-1.4245
G3 X109.2332 Y18.4068 I-0.6455 J0.6607
G2 X113.2332 Y18.3929 I2.0 J-0.0138
G1 Y3.4075
G2 X113.2331 Y3.3932 I-2.0 J0.0
G2 X111.7536 Y-0.0911 I-4.9253 J0.0353
G2 X108.5749 Y-1.5075 I-3.4817 J3.5385
G1 F50.0 Z-4.0
G2 F200.0 X108.1219 Y-1.5594 I-0.453 J1.948
G1 X91.109
G2 X89.109 Y0.4406 I0.0 J2.0
G1 Y15.426
G2 X91.109 Y17.426 I2.0 J0.0
G1 X107.8072
G2 X108.2184 Y17.4688 I0.4112 J-1.9573
G1 X108.27
G2 X108.2712 I0.0 J-2.0
G3 X108.9488 Y17.7463 I0.0006 J0.9645
G2 X108.955 Y17.7524 I1.4038 J-1.4245
G3 X109.2332 Y18.4068 I-0.6455 J0.6607
G2 X113.2332 Y18.3929 I2.0 J-0.0138
G1 Y3.4075
G2 X113.2331 Y3.3932 I-2.0 J0.0
G2 X111.7536 Y-0.0911 I-4.9253 J0.0353
G2 X108.5749 Y-1.5075 I-3.4817 J3.5385
G1 F50.0 Z-6.0
G2 F200.0 X108.1219 Y-1.5594 I-0.453 J1.948
G1 X91.109
G2 X89.109 Y0.4406 I0.0 J2.0
G1 Y15.426
G2 X91.109 Y17.426 I2.0 J0.0
G1 X107.8072
G2 X108.2184 Y17.4688 I0.4112 J-1.9573
G1 X108.27
G2 X108.2712 I0.0 J-2.0
G3 X108.9488 Y17.7463 I0.0006 J0.9645
G2 X108.955 Y17.7524 I1.4038 J-1.4245
G3 X109.2332 Y18.4068 I-0.6455 J0.6607
G2 X113.2332 Y18.3929 I2.0 J-0.0138
G1 Y3.4075
G2 X113.2331 Y3.3932 I-2.0 J0.0
G2 X111.7536 Y-0.0911 I-4.9253 J0.0353
G2 X108.5749 Y-1.5075 I-3.4817 J3.5385
( 4mm Mill Part Cutout2 )
S1000
G0 Z3.0
G0 X161.9919 Y-1.2652
G0 Z1.0
G1 F50.0 Z-2.0
G2 F200.0 X161.5391 Y-1.3171 I-0.4527 J1.9481
G1 X144.5262
G2 X142.5262 Y0.6829 I0.0 J2.0
G1 Y15.6684
G2 X144.5263 Y17.6684 I2.0 J0.0
G1 X161.2245 Y17.6681
G2 X161.6356 Y17.7108 I0.4111 J-1.9573
G1 X161.6869
G2 X161.6877 I0.0 J-2.0
G3 X162.3664 Y17.9887 I0.0004 J0.9668
G2 X162.3728 Y17.995 I1.4034 J-1.425
G3 X162.6505 Y18.648 I-0.6432 J0.659
G2 X166.6504 Y18.635 I2.0 J-0.013
G1 Y3.6498
G2 Y3.6364 I-2.0 J0.0
G2 X165.1706 Y0.151 I-4.9224 J0.033
G2 X161.9919 Y-1.2652 I-3.4807 J3.537
G1 F50.0 Z-4.0
G2 F200.0 X161.5391 Y-1.3171 I-0.4527 J1.9481
G1 X144.5262
G2 X142.5262 Y0.6829 I0.0 J2.0
G1 Y15.6684
G2 X144.5263 Y17.6684 I2.0 J0.0
G1 X161.2245 Y17.6681
G2 X161.6356 Y17.7108 I0.4111 J-1.9573
G1 X161.6869
G2 X161.6877 I0.0 J-2.0
G3 X162.3664 Y17.9887 I0.0004 J0.9668
G2 X162.3728 Y17.995 I1.4034 J-1.425
G3 X162.6505 Y18.648 I-0.6432 J0.659
G2 X166.6504 Y18.635 I2.0 J-0.013
G1 Y3.6498
G2 Y3.6364 I-2.0 J0.0
G2 X165.1706 Y0.151 I-4.9224 J0.033
G2 X161.9919 Y-1.2652 I-3.4807 J3.537
G1 F50.0 Z-6.0
G2 F200.0 X161.5391 Y-1.3171 I-0.4527 J1.9481
G1 X144.5262
G2 X142.5262 Y0.6829 I0.0 J2.0
G1 Y15.6684
G2 X144.5263 Y17.6684 I2.0 J0.0
G1 X161.2245 Y17.6681
G2 X161.6356 Y17.7108 I0.4111 J-1.9573
G1 X161.6869
G2 X161.6877 I0.0 J-2.0
G3 X162.3664 Y17.9887 I0.0004 J0.9668
G2 X162.3728 Y17.995 I1.4034 J-1.425
G3 X162.6505 Y18.648 I-0.6432 J0.659
G2 X166.6504 Y18.635 I2.0 J-0.013
G1 Y3.6498
G2 Y3.6364 I-2.0 J0.0
G2 X165.1706 Y0.151 I-4.9224 J0.033
G2 X161.9919 Y-1.2652 I-3.4807 J3.537
( 4mm Mill Part Cutout3 )
S1000
G0 Z3.0
G0 X36.8661 Y17.1838
G0 Z1.0
G1 F50.0 Z-2.0
G1 F200.0 X78.0214
G2 X80.0214 Y15.1838 I0.0 J-2.0
G1 Y0.1984
G2 X78.0214 Y-1.8016 I-2.0 J0.0
G1 X36.5514
G2 X36.0937 Y-1.7485 I0.0 J2.0
G2 X32.9334 Y-0.3228 I0.3197 J4.924
G2 X31.4876 Y2.7708 I3.4662 J3.5046
G2 X31.4272 Y3.2855 I1.9395 J0.4882
G1 X31.4285 Y3.3763
G1 Y18.2417
G2 X35.2555 Y19.0552 I2.0 J0.0
G1 X35.2976 Y18.9608
G2 X35.4704 Y18.1614 I-1.8271 J-0.8135
G3 X35.7472 Y17.5057 I0.9308 J0.0066
G2 X35.7537 Y17.4992 I-1.4053 J-1.423
G3 X36.4132 Y17.2266 I0.6598 J0.662
G1 X36.455
G2 X36.8661 Y17.1838 I0.0 J-2.0
G1 F50.0 Z-4.0
G1 F200.0 X78.0214
G2 X80.0214 Y15.1838 I0.0 J-2.0
G1 Y0.1984
G2 X78.0214 Y-1.8016 I-2.0 J0.0
G1 X36.5514
G2 X36.0937 Y-1.7485 I0.0 J2.0
G2 X32.9334 Y-0.3228 I0.3197 J4.924
G2 X31.4876 Y2.7708 I3.4662 J3.5046
G2 X31.4272 Y3.2855 I1.9395 J0.4882
G1 X31.4285 Y3.3763
G1 Y18.2417
G2 X35.2555 Y19.0552 I2.0 J0.0
G1 X35.2976 Y18.9608
G2 X35.4704 Y18.1614 I-1.8271 J-0.8135
G3 X35.7472 Y17.5057 I0.9308 J0.0066
G2 X35.7537 Y17.4992 I-1.4053 J-1.423
G3 X36.4132 Y17.2266 I0.6598 J0.662
G1 X36.455
G2 X36.8661 Y17.1838 I0.0 J-2.0
G1 F50.0 Z-6.0
G1 F200.0 X78.0214
G2 X80.0214 Y15.1838 I0.0 J-2.0
G1 Y0.1984
G2 X78.0214 Y-1.8016 I-2.0 J0.0
G1 X36.5514
G2 X36.0937 Y-1.7485 I0.0 J2.0
G2 X32.9334 Y-0.3228 I0.3197 J4.924
G2 X31.4876 Y2.7708 I3.4662 J3.5046
G2 X31.4272 Y3.2855 I1.9395 J0.4882
G1 X31.4285 Y3.3763
G1 Y18.2417
G2 X35.2555 Y19.0552 I2.0 J0.0
G1 X35.2976 Y18.9608
G2 X35.4704 Y18.1614 I-1.8271 J-0.8135
G3 X35.7472 Y17.5057 I0.9308 J0.0066
G2 X35.7537 Y17.4992 I-1.4053 J-1.423
G3 X36.4132 Y17.2266 I0.6598 J0.662
G1 X36.455
G2 X36.8661 Y17.1838 I0.0 J-2.0
( 4mm Mill Part Cutout4 )
S1000
G0 Z3.0
G0 X17.4656 Y-1.9464
G0 Z1.0
G1 F50.0 Z-2.0
G2 F200.0 X17.0129 Y-1.9983 I-0.4527 J1.9481
G1 X0.0
G2 X-2.0 Y0.0017 I0.0 J2.0
G1 Y14.9871
G2 X0.0 Y16.9871 I2.0 J0.0
G1 X16.6982 Y16.9868
G2 X17.1094 Y17.0295 I0.4111 J-1.9573
G1 X17.1607
G2 X17.1614 I0.0 J-2.0
G3 X17.8402 Y17.3075 I0.0004 J0.9668
G2 X17.8466 Y17.3138 I1.4034 J-1.425
G3 X18.1242 Y17.9667 I-0.6432 J0.659
G2 X22.1242 Y17.9537 I2.0 J-0.013
G1 Y2.9686
G2 X22.1241 Y2.9551 I-2.0 J0.0
G2 X20.6444 Y-0.5302 I-4.9224 J0.033
G2 X17.4656 Y-1.9464 I-3.4807 J3.537
G1 F50.0 Z-4.0
G2 F200.0 X17.0129 Y-1.9983 I-0.4527 J1.9481
G1 X0.0
G2 X-2.0 Y0.0017 I0.0 J2.0
G1 Y14.9871
G2 X0.0 Y16.9871 I2.0 J0.0
G1 X16.6982 Y16.9868
G2 X17.1094 Y17.0295 I0.4111 J-1.9573
G1 X17.1607
G2 X17.1614 I0.0 J-2.0
G3 X17.8402 Y17.3075 I0.0004 J0.9668
G2 X17.8466 Y17.3138 I1.4034 J-1.425
G3 X18.1242 Y17.9667 I-0.6432 J0.659
G2 X22.1242 Y17.9537 I2.0 J-0.013
G1 Y2.9686
G2 X22.1241 Y2.9551 I-2.0 J0.0
G2 X20.6444 Y-0.5302 I-4.9224 J0.033
G2 X17.4656 Y-1.9464 I-3.4807 J3.537
G1 F50.0 Z-6.0
G2 F200.0 X17.0129 Y-1.9983 I-0.4527 J1.9481
G1 X0.0
G2 X-2.0 Y0.0017 I0.0 J2.0
G1 Y14.9871
G2 X0.0 Y16.9871 I2.0 J0.0
G1 X16.6982 Y16.9868
G2 X17.1094 Y17.0295 I0.4111 J-1.9573
G1 X17.1607
G2 X17.1614 I0.0 J-2.0
G3 X17.8402 Y17.3075 I0.0004 J0.9668
G2 X17.8466 Y17.3138 I1.4034 J-1.425
G3 X18.1242 Y17.9667 I-0.6432 J0.659
G2 X22.1242 Y17.9537 I2.0 J-0.013
G1 Y2.9686
G2 X22.1241 Y2.9551 I-2.0 J0.0
G2 X20.6444 Y-0.5302 I-4.9224 J0.033
G2 X17.4656 Y-1.9464 I-3.4807 J3.537
G0 Z3.0
M5
M30
