( Made using CamBam - http://www.cambam.co.uk )
( base 11/27/2015 1:58:10 PM )
( T12 : 2.0 )
G21 G90 G91.1 G64 G40
G0 Z3.0
( T12 : 2.0 )
T12 M6
( 2.5mm Drill )
G17
M3 S1000
G0 X7.7618 Y110.0129
G98
G83 X7.7618 Y110.0129 Z-12.0 Q4.0 R3.0 F50.0
G83 X18.9802 Y120.0318 Z-12.0
G83 Y76.8518 Z-12.0
G83 X7.7618 Y16.1741 Z-12.0
G83 X18.9802 Y4.4618 Z-12.0
G83 X73.4631 Y26.5175 Z-12.0
G83 X94.4605 Z-12.0
G83 X116.9818 Z-12.0
G83 X139.9687 Z-12.0
G83 X162.9558 Z-12.0
G83 X184.9691 Z-12.0
G83 X210.9618 Y41.7574 Z-12.0
G83 X222.2507 Y16.1741 Z-12.0
G83 X210.9618 Y4.4618 Z-12.0
G83 X222.2507 Y110.0129 Z-12.0
G83 X210.9618 Y120.0318 Z-12.0
G80
G0 Z3.0
M5
M30
