( Made using CamBam - http://www.cambam.co.uk )
( base 11/27/2015 1:58:16 PM )
( T4 : 4.0 )
G21 G90 G91.1 G64 G40
G0 Z3.0
( T4 : 4.0 )
T4 M6
( 4mm Mill Screw Pockets )
G17
M3 S1000
G0 X8.1617 Y118.8341
G0 Z1.0
G1 F50.0 Z-3.0
G3 F150.0 X7.7636 Y119.2322 I-0.3979 J0.0002
G2 X7.7598 I-0.0018 J3.6
G3 X7.3619 Y118.8343 I-0.0002 J-0.3977
G2 Y118.8303 I-3.6 J-0.0019
G3 X7.7598 Y118.4324 I0.3977 J-0.0002
G2 X7.7635 I0.002 J-3.6
G3 X8.1617 Y118.8306 I0.0002 J0.398
G2 Y118.8341 I3.6 J0.0018
G1 F50.0 X9.7617 Y118.8334
G3 F150.0 X7.7628 Y120.8322 I-1.9979 J0.0009
G2 X7.7607 I-0.001 J2.0
G3 X5.7619 Y118.8335 I-0.0011 J-1.9977
G2 Y118.8313 I-2.0 J-0.001
G3 X7.7607 Y116.8324 I1.9977 J-0.0012
G2 X7.7627 I0.0011 J-2.0
G3 X9.7617 Y118.8314 I0.0009 J1.998
G2 Y118.8334 I2.0 J0.001
G1 F50.0 X8.1617 Y118.8341
G1 Z-6.0
G3 F150.0 X7.7636 Y119.2322 I-0.3979 J0.0002
G2 X7.7598 I-0.0018 J3.6
G3 X7.3619 Y118.8343 I-0.0002 J-0.3977
G2 Y118.8303 I-3.6 J-0.0019
G3 X7.7598 Y118.4324 I0.3977 J-0.0002
G2 X7.7635 I0.002 J-3.6
G3 X8.1617 Y118.8306 I0.0002 J0.398
G2 Y118.8341 I3.6 J0.0018
G1 F50.0 X9.7617 Y118.8334
G3 F150.0 X7.7628 Y120.8322 I-1.9979 J0.0009
G2 X7.7607 I-0.001 J2.0
G3 X5.7619 Y118.8335 I-0.0011 J-1.9977
G2 Y118.8313 I-2.0 J-0.001
G3 X7.7607 Y116.8324 I1.9977 J-0.0012
G2 X7.7627 I0.0011 J-2.0
G3 X9.7617 Y118.8314 I0.0009 J1.998
G2 Y118.8334 I2.0 J0.001
G0 Z3.0
G0 X7.7711 Y7.7544
G0 Z1.0
G1 F50.0 Z-3.0
G3 F150.0 X7.7638 I-0.0071 J-0.3977
G2 X7.7596 I-0.002 J3.6
G3 X7.3619 Y7.3568 I-0.0002 J-0.3975
G2 Y7.3527 I-3.6 J-0.0021
G3 X7.7596 Y6.9549 I0.3975 J-0.0002
G2 X7.7642 I0.0022 J-3.6
G3 X8.1617 Y7.3524 I0.0003 J0.3972
G2 Y7.3565 I3.6 J0.0023
G3 X7.7711 Y7.7544 I-0.3977 J0.0002
G1 F50.0 X7.7998 Y9.3541
G3 F150.0 X7.7629 Y9.3544 I-0.0358 J-1.9974
G2 X7.7606 I-0.0011 J2.0
G3 X5.7619 Y7.3558 I-0.0012 J-1.9975
G2 Y7.3536 I-2.0 J-0.0011
G3 X7.7606 Y5.3549 I1.9975 J-0.0011
G2 X7.7632 I0.0012 J-2.0
G3 X9.7617 Y7.3534 I0.0014 J1.9972
G2 Y7.3557 I2.0 J0.0013
G3 X7.7998 Y9.3541 I-1.9977 J0.001
G1 F50.0 X7.7711 Y7.7544
G1 Z-6.0
G3 F150.0 X7.7638 I-0.0071 J-0.3977
G2 X7.7596 I-0.002 J3.6
G3 X7.3619 Y7.3568 I-0.0002 J-0.3975
G2 Y7.3527 I-3.6 J-0.0021
G3 X7.7596 Y6.9549 I0.3975 J-0.0002
G2 X7.7642 I0.0022 J-3.6
G3 X8.1617 Y7.3524 I0.0003 J0.3972
G2 Y7.3565 I3.6 J0.0023
G3 X7.7711 Y7.7544 I-0.3977 J0.0002
G1 F50.0 X7.7998 Y9.3541
G3 F150.0 X7.7629 Y9.3544 I-0.0358 J-1.9974
G2 X7.7606 I-0.0011 J2.0
G3 X5.7619 Y7.3558 I-0.0012 J-1.9975
G2 Y7.3536 I-2.0 J-0.0011
G3 X7.7606 Y5.3549 I1.9975 J-0.0011
G2 X7.7632 I0.0012 J-2.0
G3 X9.7617 Y7.3534 I0.0014 J1.9972
G2 Y7.3557 I2.0 J0.0013
G3 X7.7998 Y9.3541 I-1.9977 J0.001
G0 Z3.0
G0 X221.8506 Y7.3601
G0 Z1.0
G1 F50.0 Z-3.0
G3 F150.0 Y7.3562 I0.398 J-0.0037
G2 Y7.3527 I-3.6 J-0.0015
G3 X222.2487 Y6.9546 I0.3979 J-0.0002
G2 X222.2522 I0.002 J-3.6
G3 X222.6508 Y7.3532 I0.0002 J0.3984
G2 Y7.3562 I3.6 J0.0015
G3 X222.2525 Y7.7544 I-0.3981 J0.0002
G2 X222.2488 I-0.0018 J3.6
G3 X221.8506 Y7.3601 I-0.0002 J-0.398
G1 F50.0 X220.2507 Y7.375
G3 F150.0 X220.2506 Y7.3555 I1.998 J-0.0186
G2 Y7.3536 I-2.0 J-0.0009
G3 X222.2496 Y5.3546 I1.9979 J-0.0011
G2 X222.2515 I0.0011 J-2.0
G3 X224.2508 Y7.3538 I0.0009 J1.9984
G2 Y7.3555 I2.0 J0.0009
G3 X222.2517 Y9.3544 I-1.9981 J0.0008
G2 X222.2497 I-0.001 J2.0
G3 X220.2507 Y7.375 I-0.001 J-1.998
G1 F50.0 X221.8506 Y7.3601
G1 Z-6.0
G3 F150.0 Y7.3562 I0.398 J-0.0037
G2 Y7.3527 I-3.6 J-0.0015
G3 X222.2487 Y6.9546 I0.3979 J-0.0002
G2 X222.2522 I0.002 J-3.6
G3 X222.6508 Y7.3532 I0.0002 J0.3984
G2 Y7.3562 I3.6 J0.0015
G3 X222.2525 Y7.7544 I-0.3981 J0.0002
G2 X222.2488 I-0.0018 J3.6
G3 X221.8506 Y7.3601 I-0.0002 J-0.398
G1 F50.0 X220.2507 Y7.375
G3 F150.0 X220.2506 Y7.3555 I1.998 J-0.0186
G2 Y7.3536 I-2.0 J-0.0009
G3 X222.2496 Y5.3546 I1.9979 J-0.0011
G2 X222.2515 I0.0011 J-2.0
G3 X224.2508 Y7.3538 I0.0009 J1.9984
G2 Y7.3555 I2.0 J0.0009
G3 X222.2517 Y9.3544 I-1.9981 J0.0008
G2 X222.2497 I-0.001 J2.0
G3 X220.2507 Y7.375 I-0.001 J-1.998
G0 Z3.0
G0 X222.2418 Y118.4324
G0 Z1.0
G1 F50.0 Z-3.0
G3 F150.0 X222.2491 I0.0071 J0.3983
G2 X222.2573 I0.0016 J-3.6
G3 X222.5303 Y118.5454 I0.0007 J0.3845
G2 X222.5372 Y118.5523 I2.5493 J-2.5419
G3 X222.6508 Y118.8266 I-0.273 J0.2737
G2 Y118.8338 I3.6 J0.0059
G3 X222.2523 Y119.2322 I-0.3983 J0.0001
G2 X222.249 I-0.0016 J3.6
G3 X221.8506 Y118.8338 I-0.0002 J-0.3983
G2 Y118.8309 I-3.6 J-0.0013
G3 X222.2418 Y118.4324 I0.3983 J-0.0002
G1 F50.0 X222.2131 Y116.8327
G3 F150.0 X222.2498 Y116.8324 I0.0358 J1.998
G2 X222.2544 I0.0009 J-2.0
G3 X223.6633 Y117.4157 I0.0037 J1.9845
G2 X223.6672 Y117.4195 I1.4163 J-1.4122
G3 X224.2508 Y118.8292 I-1.4029 J1.4065
G2 Y118.8332 I2.0 J0.0033
G3 X222.2516 Y120.8322 I-1.9983 J0.0007
G2 X222.2498 I-0.0009 J2.0
G3 X220.2506 Y118.8332 I-0.0009 J-1.9983
G2 Y118.8316 I-2.0 J-0.0007
G3 X222.2131 Y116.8327 I1.9983 J-0.0009
G1 F50.0 X222.2418 Y118.4324
G1 Z-6.0
G3 F150.0 X222.2491 I0.0071 J0.3983
G2 X222.2573 I0.0016 J-3.6
G3 X222.5303 Y118.5454 I0.0007 J0.3845
G2 X222.5372 Y118.5523 I2.5493 J-2.5419
G3 X222.6508 Y118.8266 I-0.273 J0.2737
G2 Y118.8338 I3.6 J0.0059
G3 X222.2523 Y119.2322 I-0.3983 J0.0001
G2 X222.249 I-0.0016 J3.6
G3 X221.8506 Y118.8338 I-0.0002 J-0.3983
G2 Y118.8309 I-3.6 J-0.0013
G3 X222.2418 Y118.4324 I0.3983 J-0.0002
G1 F50.0 X222.2131 Y116.8327
G3 F150.0 X222.2498 Y116.8324 I0.0358 J1.998
G2 X222.2544 I0.0009 J-2.0
G3 X223.6633 Y117.4157 I0.0037 J1.9845
G2 X223.6672 Y117.4195 I1.4163 J-1.4122
G3 X224.2508 Y118.8292 I-1.4029 J1.4065
G2 Y118.8332 I2.0 J0.0033
G3 X222.2516 Y120.8322 I-1.9983 J0.0007
G2 X222.2498 I-0.0009 J2.0
G3 X220.2506 Y118.8332 I-0.0009 J-1.9983
G2 Y118.8316 I-2.0 J-0.0007
G3 X222.2131 Y116.8327 I1.9983 J-0.0009
G0 Z3.0
M5
M30
