( Made using CamBam - http://www.cambam.co.uk )
( base 11/27/2015 1:58:22 PM )
( T8 : 8.0 )
G21 G90 G91.1 G64 G40
G0 Z3.0
( T8 : 8.0 )
T8 M6
( Pocket 1 )
G17
M3 S1000
G0 X155.7779 Y61.617
G0 Z1.0
G1 F50.0 Z-1.6
G2 F150.0 X156.328 Y63.4271 I59.2058 J-17.007
G1 X76.6009
G1 Y61.617
G1 X155.7779
G1 F50.0 X158.8535 Y60.7335
G2 F150.0 X160.8929 Y66.6271 I56.1301 J-16.1235
G1 X73.4009
G1 Y58.417
G1 X158.2392
G2 X158.8535 Y60.7335 I56.7444 J-13.807
G1 F50.0 X161.9291 Y59.85
G2 F150.0 X165.8803 Y69.8271 I53.0545 J-15.2401
G1 X70.2009
G1 Y55.217
G1 X160.8123
G2 X161.9291 Y59.85 I54.1713 J-10.607
G1 F50.0 X165.0047 Y58.9665
G2 F150.0 X171.4352 Y73.0271 I49.9789 J-14.3566
G1 X67.0009
G1 Y52.017
G1 X163.5138
G2 X165.0047 Y58.9665 I51.4698 J-7.407
G1 F50.0 X168.0803 Y58.0831
G2 F150.0 X176.6087 Y74.7564 I46.9033 J-13.4731
G2 X175.4977 Y76.2271 I38.3749 J30.1465
G1 X63.8009
G1 Y48.817
G1 X166.3653
G2 X168.0803 Y58.0831 I48.6183 J-4.207
G1 F50.0 X171.156 Y57.1996
G2 F150.0 X180.7703 Y74.7564 I43.8276 J-12.5896
G2 X177.1637 Y79.4271 I34.2133 J30.1465
G1 X60.6009
G1 Y45.617
G1 X169.3947
G2 X171.156 Y57.1996 I45.5889 J-1.007
G1 F50.0 X174.2316 Y56.3161
G2 F150.0 X185.1683 Y74.7564 I40.752 J-11.7061
G2 X178.9066 Y82.6271 I29.8153 J30.1465
G1 X57.4009
G1 Y42.417
G1 X172.5836
G1 Y44.61
G2 X174.2316 Y56.3161 I42.4 J0.0
G1 F50.0 X177.3072 Y55.4326
G2 F150.0 X189.9271 Y74.7564 I37.6764 J-10.8227
G2 X180.7381 Y85.8271 I25.0565 J30.1465
G1 X54.2009
G1 Y39.217
G1 X175.7836
G1 Y44.61
G2 X177.3072 Y55.4326 I39.2 J0.0
G1 F50.0 X180.3828 Y54.5491
G2 F150.0 X195.3065 Y74.7564 I34.6008 J-9.9392
G2 X182.6733 Y89.0271 I19.6771 J30.1465
G1 X51.0009
G1 Y36.017
G1 X178.9836
G1 Y44.61
G2 X180.3828 Y54.5491 I36.0 J0.0
G1 F50.0 X183.4585 Y53.6656
G2 F150.0 X202.0596 Y74.7564 I31.5251 J-9.0557
G2 X184.7319 Y92.2271 I12.924 J30.1465
G1 X47.8009
G1 Y32.817
G1 X182.1836
G1 Y44.61
G2 X183.4585 Y53.6656 I32.8 J0.0
G1 F50.0 X186.5341 Y52.7822
G2 F150.0 X207.7275 Y73.3068 I28.4495 J-8.1722
G1 Y76.2061
G2 X186.9413 Y95.4271 I7.2561 J28.6968
G1 X44.6008
G1 X44.6009 Y29.617
G1 X185.3836
G1 Y44.61
G2 X186.5341 Y52.7822 I29.6 J0.0
G1 F50.0 X189.6097 Y51.8987
G2 F150.0 X210.9275 Y70.6965 I25.3739 J-7.2887
G1 Y78.8164
G2 X189.3404 Y98.6271 I4.0561 J26.0865
G1 X41.4008
G1 X41.4009 Y26.417
G1 X188.5836
G1 Y44.61
G2 X189.6097 Y51.8987 I26.4 J0.0
G1 F50.0 X192.6853 Y51.0152
G2 F150.0 X214.1275 Y67.7942 I22.2983 J-6.4052
G1 Y81.7187
G2 X191.9884 Y101.8271 I0.8561 J23.1842
G1 X38.2008
G1 X38.201 Y23.217
G1 X191.7836
G1 Y44.61
G2 X192.6853 Y51.0152 I23.2 J0.0
G1 F50.0 X195.761 Y50.1317
G2 F150.0 X214.9836 Y64.61 I19.2226 J-5.5218
G1 X217.3275
G1 Y84.9029
G1 X214.9836
G2 X194.9836 Y104.9033 I0.0 J20.0
G1 Y105.0271
G1 X35.0008
G1 X35.001 Y20.017
G1 X194.9836
G1 Y44.61
G2 X195.761 Y50.1317 I20.0 J0.0
G1 F50.0 X198.8366 Y49.2482
G2 F150.0 X214.9836 Y61.41 I16.147 J-4.6383
G1 X220.5275
G1 Y88.1029
G1 X214.9836
G2 X198.1836 Y104.9033 I0.0 J16.8
G1 X198.1837 Y108.2271
G1 X31.8008
G1 X31.801 Y16.817
G1 X198.1836
G1 Y44.61
G2 X198.8366 Y49.2482 I16.8 J0.0
G1 F50.0 X201.9122 Y48.3648
G2 F150.0 X214.9836 Y58.21 I13.0714 J-3.7548
G1 X223.7275
G1 Y91.3029
G1 X214.9836
G2 X201.3836 Y104.9032 I0.0 J13.6
G1 X201.3837 Y111.4271
G1 X28.6008
G1 X28.601 Y13.617
G1 X201.3836
G1 Y44.61
G2 X201.9122 Y48.3648 I13.6 J0.0
G1 F50.0 X204.9878 Y47.4813
G2 F150.0 X214.9836 Y55.01 I9.9958 J-2.8713
G1 X226.9275
G1 Y94.5029
G1 X214.9836
G2 X204.5836 Y104.9031 I0.0 J10.4
G1 X204.5838 Y114.6271
G1 X25.4008
G1 X25.401 Y10.417
G1 X204.5836
G1 Y44.61
G2 X204.9878 Y47.4813 I10.4 J0.0
G1 F50.0 X208.0635 Y46.5978
G2 F150.0 X214.9836 Y51.81 I6.9202 J-1.9878
G1 X230.1275
G1 Y97.7029
G1 X214.9836
G2 X207.7836 Y104.9031 I0.0 J7.2
G1 X207.7839 Y117.8271
G1 X22.2008
G1 X22.201 Y7.217
G1 X207.7836
G1 Y44.61
G2 X208.0635 Y46.5978 I7.2 J0.0
G1 F50.0 X211.1391 Y45.7143
G2 F150.0 X214.9836 Y48.61 I3.8445 J-1.1044
G1 X233.3275
G1 Y100.9029
G1 X214.9836
G2 X210.9836 Y104.903 I0.0 J4.0
G1 X210.9839 Y121.0271
G1 X19.0008
G1 X19.001 Y4.017
G1 X210.9836
G1 Y44.61
G2 X211.1391 Y45.7143 I4.0 J0.0
( Pocket 2 )
S1000
G0 Z3.0
G0 X45.5576 Y106.7271
G0 Z1.0
G1 F50.0 Z-3.0
G1 F200.0 X34.3131
G2 X33.3008 Y105.6432 I-15.3314 J13.3032
G1 Y104.1646
G1 X45.5576
G1 Y106.7271
G1 F50.0 X48.7576
G1 F200.0 Y109.9271
G1 X32.776
G2 X30.1008 Y107.041 I-13.7943 J10.1032
G1 Y100.9646
G1 X48.7576
G1 Y106.7271
G1 F50.0 X51.9576
G1 F200.0 Y113.1271
G1 X31.0445
G2 X26.9008 Y108.6086 I-12.0629 J6.9032
G1 Y97.7646
G1 X51.9576
G1 Y106.7271
G1 F50.0 X55.1576
G1 F200.0 Y116.3271
G1 X29.0188
G2 X23.7008 Y110.4289 I-10.0371 J3.7032
G1 Y94.5646
G1 X55.1576
G1 Y106.7271
G1 F50.0 X58.3576
G1 F200.0 Y119.5271
G1 X26.4632
G2 X20.5008 Y112.6873 I-7.4815 J0.5032
G1 Y91.3646
G1 X58.3576
G1 Y106.7271
G0 Z3.0
G0 X45.5576
G0 Z-2.0
G1 F50.0 Z-6.0
G1 F200.0 X34.3131
G2 X33.3008 Y105.6432 I-15.3314 J13.3032
G1 Y104.1646
G1 X45.5576
G1 Y106.7271
G1 F50.0 X48.7576
G1 F200.0 Y109.9271
G1 X32.776
G2 X30.1008 Y107.041 I-13.7943 J10.1032
G1 Y100.9646
G1 X48.7576
G1 Y106.7271
G1 F50.0 X51.9576
G1 F200.0 Y113.1271
G1 X31.0445
G2 X26.9008 Y108.6086 I-12.0629 J6.9032
G1 Y97.7646
G1 X51.9576
G1 Y106.7271
G1 F50.0 X55.1576
G1 F200.0 Y116.3271
G1 X29.0188
G2 X23.7008 Y110.4289 I-10.0371 J3.7032
G1 Y94.5646
G1 X55.1576
G1 Y106.7271
G1 F50.0 X58.3576
G1 F200.0 Y119.5271
G1 X26.4632
G2 X20.5008 Y112.6873 I-7.4815 J0.5032
G1 Y91.3646
G1 X58.3576
G1 Y106.7271
( Pocket 3 )
S1000
G0 Z3.0
G0 X199.8836 Y18.1648
G0 Z1.0
G1 F50.0 Z-3.0
G2 F200.0 X199.8568 Y18.1172 I-14.9121 J8.351
G2 X199.8836 Y18.1389 I11.1032 J-13.6536
G1 Y18.1648
G0 Z3.0
G0 X173.07 Y76.1919
G0 Z1.0
G1 F50.0 Z-3.0
G2 F200.0 X173.1933 Y76.3271 I37.89 J-34.4328
G1 X172.3817
G2 X173.07 Y76.1919 I-9.4241 J-49.8079
G0 Z3.0
G0 X153.5301 Y76.3271
G0 Z1.0
G1 F50.0 Z-3.0
G1 F200.0 X149.3946
G2 X151.4624 Y75.891 I-9.4241 J-49.8079
G2 X153.5301 Y76.3271 I11.4918 J-49.3721
G0 Z3.0
G0 X130.5431
G0 Z1.0
G1 F50.0 Z-3.0
G1 F200.0 X126.4086
G2 X128.4758 Y75.8912 I-9.424 J-49.8068
G2 X130.5431 Y76.3271 I11.4914 J-49.3722
G1 F50.0 Y77.9271
G1 F200.0 X110.7005
G2 X110.2264 Y75.1441 I-45.1679 J6.2625
G2 X116.976 Y75.6108 I6.7532 J-48.625
G2 X128.4758 Y74.2469 I0.0086 J-49.0905
G2 X139.9669 Y75.6108 I11.4914 J-47.728
G2 X151.4624 Y74.2468 I0.0036 J-49.0916
G2 X162.954 Y75.6108 I11.4918 J-47.7279
G2 X173.6452 Y74.4333 I0.0036 J-49.0916
G2 X176.5008 Y77.4321 I37.3148 J-32.6741
G2 X176.1487 Y77.9271 I36.9828 J26.6764
G1 X130.5431
G1 F50.0 Y81.1271
G1 F200.0 X107.8219
G2 X105.8416 Y71.0387 I-42.2893 J3.0625
G2 X116.9764 Y72.4108 I11.138 J-44.5196
G2 X128.4758 Y70.9488 I0.0082 J-45.8905
G2 X139.9671 Y72.4108 I11.4914 J-44.4299
G2 X151.4624 Y70.9487 I0.0035 J-45.8916
G2 X162.9541 Y72.4108 I11.4919 J-44.4298
G2 X173.9623 Y71.0718 I0.0035 J-45.8916
G2 X175.2367 Y71.3674 I11.0046 J-44.5525
G2 X180.839 Y77.0513 I35.7233 J-29.6083
G2 X177.8519 Y81.1271 I32.6446 J27.0572
G1 X130.5431
G1 F50.0 Y84.3271
G1 F200.0 X104.7326
G1 Y84.1896
G2 X101.51 Y68.6248 I-39.2 J0.0
G2 X105.7205 Y67.6994 I-7.0473 J-42.1056
G2 X116.9768 Y69.2108 I11.2591 J-41.1803
G2 X128.4758 Y67.6352 I0.0078 J-42.6905
G2 X139.9672 Y69.2108 I11.4914 J-41.1163
G2 X151.4624 Y67.635 I0.0034 J-42.6916
G2 X162.9542 Y69.2108 I11.4919 J-41.1161
G2 X173.9623 Y67.7681 I0.0034 J-42.6916
G2 X177.0029 Y68.4614 I11.0046 J-41.2488
G2 X185.5001 Y76.6574 I33.9571 J-26.7022
G2 X179.6408 Y84.3271 I27.9835 J27.4511
G1 X130.5431
G1 F50.0 Y87.5271
G1 F200.0 X101.5326
G1 Y87.3646
G1 Y84.1896
G2 X96.5723 Y65.9541 I-36.0 J0.0
G2 X105.7206 Y64.3718 I-2.1096 J-39.4349
G2 X116.9772 Y66.0108 I11.259 J-37.8528
G2 X128.4758 Y64.302 I0.0074 J-39.4905
G2 X139.9673 Y66.0108 I11.4914 J-37.7831
G2 X151.4624 Y64.3018 I0.0032 J-39.4916
G2 X162.9544 Y66.0108 I11.4919 J-37.7829
G2 X173.9623 Y64.4466 I0.0032 J-39.4916
G2 X178.7873 Y65.5243 I11.0046 J-37.9272
G2 X190.6919 Y76.2421 I32.1727 J-23.7652
G2 X181.5296 Y87.5271 I22.7917 J27.8664
G1 X130.5431
G1 F50.0 Y90.7271
G1 F200.0 X98.3326
G1 Y87.3646
G1 Y84.1896
G2 X90.1889 Y62.5585 I-32.8 J0.0
G2 X94.4589 Y62.8105 I4.2694 J-36.0394
G2 X105.7206 Y61.0202 I0.0038 J-36.2913
G2 X116.9776 Y62.8108 I11.259 J-34.5011
G2 X128.4758 Y60.9435 I0.007 J-36.2905
G2 X139.9674 Y62.8108 I11.4914 J-34.4246
G2 X151.4624 Y60.9433 I0.0031 J-36.2916
G2 X162.9545 Y62.8108 I11.4919 J-34.4244
G2 X173.9623 Y61.1021 I0.0031 J-36.2916
G2 X180.5956 Y62.5466 I11.0046 J-34.5828
G2 X196.9442 Y75.7838 I30.3645 J-20.7874
G2 X183.5373 Y90.7271 I16.5394 J28.3247
G1 X130.5431
G1 F50.0 Y93.9271
G1 F200.0 X95.1326
G1 Y87.3646
G1 Y84.1896
G2 X80.7474 Y58.7993 I-29.6 J0.0
G2 X83.9619 Y57.9016 I-7.282 J-32.2803
G2 X94.459 Y59.6105 I10.4965 J-31.3826
G2 X105.7207 Y57.6366 I0.0037 J-33.0913
G2 X116.978 Y59.6108 I11.2589 J-31.1175
G2 X128.4758 Y57.5515 I0.0066 J-33.0905
G2 X139.9676 Y59.6108 I11.4914 J-31.0326
G2 X151.4624 Y57.5513 I0.003 J-33.0916
G2 X162.9546 Y59.6108 I11.4919 J-31.0324
G2 X173.9623 Y57.7274 I0.003 J-33.0916
G2 X182.436 Y59.5139 I11.0046 J-31.2081
G2 X207.3124 Y75.1589 I28.524 J-17.7547
G2 X185.6897 Y93.9271 I6.1712 J28.9495
G1 X130.5431
G0 Z3.0
G0 X55.9372 Y54.5899
G0 Z1.0
G1 F50.0 Z-3.0
G1 F200.0 X46.1008 Y54.5903
G1 Y45.1329
G2 X55.9372 Y54.5899 I27.3596 J-18.6133
G1 F50.0 X57.6317 Y51.8754
G2 F200.0 X73.4654 Y56.4105 I15.8287 J-25.3558
G2 X83.9619 Y54.5069 I0.0 J-29.8915
G2 X94.4592 Y56.4105 I10.4965 J-27.9879
G2 X105.7207 Y54.2094 I0.0036 J-29.8913
G2 X116.9784 Y56.4108 I11.2589 J-27.6903
G2 X128.4757 Y54.1137 I0.0062 J-29.8905
G2 X139.9677 Y56.4108 I11.4914 J-27.5948
G2 X151.4624 Y54.1135 I0.0029 J-29.8916
G2 X162.9547 Y56.4108 I11.4919 J-27.5946
G2 X173.9623 Y54.3114 I0.0029 J-29.8916
G2 X184.3219 Y56.4039 I11.0046 J-27.7921
G2 X210.8386 Y72.1573 I26.6382 J-14.6447
G1 Y77.8413
G2 X188.0234 Y97.1271 I2.645 J26.2672
G1 X91.9326
G1 Y87.3646
G1 Y84.1896
G2 X65.5326 Y57.7896 I-26.4 J0.0
G1 X62.3576
G1 X62.3566
G1 X42.9008 Y57.7904
G1 Y27.917
G1 X43.6023
G2 X57.6317 Y51.8754 I29.8582 J-1.3974
G1 F50.0 X59.3263 Y49.1609
G2 F200.0 X73.4651 Y53.2105 I14.1342 J-22.6413
G2 X83.9619 Y51.06 I0.0003 J-26.6915
G2 X94.4593 Y53.2105 I10.4965 J-24.5409
G2 X105.7207 Y50.7201 I0.0034 J-26.6913
G2 X116.9788 Y53.2108 I11.2588 J-24.201
G2 X128.4757 Y50.6105 I0.0058 J-26.6905
G2 X139.9678 Y53.2108 I11.4914 J-24.0916
G2 X151.4624 Y50.6103 I0.0027 J-26.6916
G2 X162.9549 Y53.2108 I11.4919 J-24.0914
G2 X173.9623 Y50.8367 I0.0027 J-26.6916
G2 X184.97 Y53.2108 I11.0046 J-24.3173
G2 X186.2753 Y53.179 I0.0013 J-26.6914
G2 X210.9656 Y68.9575 I24.6848 J-11.4198
G1 X214.0386 Y68.9573
G1 Y80.9085
G1 X213.4836
G2 X190.5938 Y100.3271 I0.0 J23.2
G1 X88.7326
G1 Y87.3646
G1 Y84.1896
G2 X65.5326 Y60.9896 I-23.2 J0.0
G1 X62.3576
G1 X62.3567
G1 X41.078 Y60.9905
G2 X39.7008 Y59.2293 I-22.0952 J15.8588
G1 Y24.717
G1 X46.8302
G2 X46.7696 Y26.5155 I26.6304 J1.7987
G2 X59.3263 Y49.1609 I26.6909 J0.0041
G1 F50.0 X61.0208 Y46.4464
G2 F200.0 X73.4649 Y50.0105 I12.4396 J-19.9268
G2 X83.9619 Y47.535 I0.0006 J-23.4915
G2 X94.4595 Y50.0105 I10.4965 J-21.016
G2 X105.7208 Y47.1371 I0.0033 J-23.4913
G2 X116.9792 Y50.0108 I11.2588 J-20.618
G2 X128.4757 Y47.0083 I0.0054 J-23.4905
G2 X139.9679 Y50.0108 I11.4915 J-20.4894
G2 X151.4623 Y47.0081 I0.0026 J-23.4916
G2 X162.955 Y50.0108 I11.4919 J-20.4892
G2 X173.9623 Y47.2738 I0.0026 J-23.4916
G2 X184.9699 Y50.0108 I11.0046 J-20.7545
G2 X188.3376 Y49.7684 I0.0014 J-23.4914
G2 X210.9652 Y65.7575 I22.6224 J-8.0092
G1 X216.7543 Y65.7572
G1 X216.7549
G1 X216.7537
G1 X216.7543
G1 X217.2386
G1 Y84.1085
G1 X213.4836
G2 X193.4921 Y103.5271 I0.0 J20.0
G1 X85.5326
G1 Y87.3646
G1 Y84.1896
G2 X65.5326 Y64.1896 I-20.0 J0.0
G1 X62.3576
G1 X62.3568
G1 X39.3698 Y64.1905
G2 X36.5008 Y60.4482 I-20.3871 J12.6587
G1 Y21.517
G1 X50.5076
G2 X49.9696 Y26.5158 I22.9531 J4.9987
G2 X61.0208 Y46.4464 I23.4909 J0.0038
G1 F50.0 X62.7154 Y43.7319
G2 F200.0 X73.4646 Y46.8105 I10.745 J-17.2123
G2 X83.9619 Y43.8847 I0.0008 J-20.2915
G2 X94.4596 Y46.8105 I10.4965 J-17.3657
G2 X105.7208 Y43.4009 I0.0031 J-20.2913
G2 X116.9796 Y46.8108 I11.2588 J-16.8818
G2 X128.4757 Y43.2434 I0.005 J-20.2905
G2 X139.9681 Y46.8108 I11.4915 J-16.7245
G2 X151.4623 Y43.2431 I0.0025 J-20.2916
G2 X162.9551 Y46.8108 I11.4919 J-16.7242
G2 X173.9623 Y43.5676 I0.0025 J-20.2916
G2 X184.9698 Y46.8108 I11.0046 J-17.0482
G2 X190.6016 Y46.0141 I0.0015 J-20.2914
G2 X210.9647 Y62.5575 I20.3585 J-4.2549
G1 X216.7542 Y62.5572
G1 X216.7547
G1 X216.7537
G1 X216.7542
G1 X220.4386
G1 Y87.3085
G1 X213.4836
G2 X196.6836 Y104.1085 I0.0 J16.8
G1 Y105.601
G2 X195.6289 Y106.7271 I14.2769 J14.4292
G1 X82.3326
G1 Y87.3646
G1 Y84.1896
G2 X65.5326 Y67.3896 I-16.8 J0.0
G1 X62.3576
G1 X62.3569
G1 X37.5048 Y67.3906
G2 X33.3008 Y61.7653 I-18.5221 J9.4586
G1 Y19.5477
G2 X34.4947 Y18.317 I-14.3182 J-15.084
G1 X54.8997
G2 X53.1696 Y26.516 I18.561 J8.1987
G2 X62.7154 Y43.7319 I20.2909 J0.0036
G1 F50.0 X64.41 Y41.0174
G2 F200.0 X73.4643 Y43.6105 I9.0505 J-14.4978
G2 X83.9619 Y40.0076 I0.0011 J-17.0915
G2 X94.4598 Y43.6105 I10.4965 J-13.4886
G2 X105.7209 Y39.3787 I0.003 J-17.0913
G2 X116.98 Y43.6108 I11.2587 J-12.8596
G2 X128.4756 Y39.1711 I0.0046 J-17.0905
G2 X139.9682 Y43.6108 I11.4915 J-12.6522
G2 X151.4623 Y39.1708 I0.0024 J-17.0916
G2 X162.9552 Y43.6108 I11.4919 J-12.6519
G2 X173.9623 Y39.5967 I0.0024 J-17.0916
G2 X184.9697 Y43.6108 I11.0046 J-13.0773
G2 X193.3652 Y41.4077 I0.0016 J-17.0914
G2 X193.3617 Y41.7566 I17.5954 J0.3485
G2 X210.9643 Y59.3575 I17.5983 J0.0026
G1 X216.7541 Y59.3572
G1 X216.7545
G1 X216.7537
G1 X216.7541
G1 X223.6386
G1 Y90.5085
G1 X213.4836
G2 X199.8836 Y104.1085 I0.0 J13.6
G1 Y107.0047
G2 X197.166 Y109.9271 I11.0769 J13.0255
G1 X79.1326
G1 Y87.3646
G1 Y84.1896
G2 X65.5326 Y70.5896 I-13.6 J0.0
G1 X62.3576
G1 X62.3571
G1 X35.4296 Y70.5907
G2 X30.1008 Y63.2089 I-16.4469 J6.2586
G1 Y18.1041
G2 X32.9891 Y15.117 I-11.1182 J-13.6404
G1 X60.7258
G2 X56.3696 Y26.5163 I12.7348 J11.3987
G2 X64.41 Y41.0174 I17.0909 J0.0033
G0 Z3.0
G0 X67.7991 Y35.5884
G0 Z1.0
G1 F50.0 Z-3.0
G2 F200.0 X73.4638 Y37.2105 I5.6614 J-9.0688
G2 X83.9619 Y28.5515 I0.0016 J-10.6915
G2 X94.4601 Y37.2105 I10.4965 J-2.0325
G2 X105.154 Y26.5174 I0.0027 J-10.6913
G2 X94.46 Y15.8246 I-10.6909 J-0.0019
G2 X83.9619 Y24.4832 I-0.002 J10.6911
G2 X73.4633 Y15.8246 I-10.4962 J2.0325
G2 X62.7696 Y26.5168 I-0.0027 J10.6911
G2 X67.7991 Y35.5884 I10.6909 J0.0028
G1 F50.0 X69.4903 Y32.8794
G2 F200.0 X73.4635 Y34.0169 I3.9702 J-6.3598
G2 X80.9633 Y26.5173 I0.0019 J-7.4979
G2 X73.4633 Y19.0182 I-7.4976 J-0.0015
G2 X65.9632 Y26.517 I-0.0026 J7.4975
G2 X69.4903 Y32.8794 I7.4973 J0.0026
G0 Z3.0
G0 X87.1926 Y28.3699
G0 Z1.0
G1 F50.0 Z-3.0
G2 F200.0 X94.4602 Y34.0169 I7.2658 J-1.8509
G2 X101.9604 Y26.5174 I0.0025 J-7.4977
G2 X94.4602 Y19.0182 I-7.4973 J-0.0019
G2 X86.9605 Y26.5173 I-0.0021 J7.4975
G2 X87.1926 Y28.3699 I7.4978 J0.0017
G0 Z3.0
G0 X106.3084 Y27.1821
G0 Z1.0
G1 F50.0 Z-3.0
G2 F200.0 X116.9808 Y37.2108 I10.6712 J-0.6631
G2 X127.6751 Y26.5169 I0.0038 J-10.6905
G2 X116.9805 Y15.8246 I-10.6903 J-0.002
G2 X106.2878 Y26.5166 I-0.0009 J10.6918
G2 X106.3084 Y27.1821 I10.6918 J0.0024
G1 F50.0 X109.4959 Y26.9841
G2 F200.0 X116.9812 Y34.0172 I7.4837 J-0.465
G2 X124.4815 Y26.5171 I0.0034 J-7.4969
G2 X116.981 Y19.0182 I-7.4967 J-0.0022
G2 X109.4814 Y26.5169 I-0.0014 J7.4982
G2 X109.4959 Y26.9841 I7.4982 J0.0021
G0 Z3.0
G0 X129.2765 Y26.6821
G0 Z1.0
G1 F50.0 Z-3.0
G2 F200.0 X139.9684 Y37.2108 I10.6907 J-0.1632
G2 X150.6622 Y26.5171 I0.0021 J-10.6916
G2 X139.9683 Y15.8242 I-10.6915 J-0.0014
G2 X129.2752 Y26.517 I-0.0011 J10.6919
G2 X129.2765 Y26.6821 I10.6919 J0.0019
G1 F50.0 X132.4697 Y26.6334
G2 F200.0 X139.9686 Y34.0172 I7.4974 J-0.1145
G2 X147.4686 Y26.5172 I0.002 J-7.498
G2 X139.9685 Y19.0178 I-7.4979 J-0.0015
G2 X132.4688 Y26.5171 I-0.0013 J7.4983
G2 X132.4697 Y26.6334 I7.4983 J0.0018
G0 Z3.0
G0 X152.2624 Y26.559
G0 Z1.0
G1 F50.0 Z-3.0
G2 F200.0 X162.9555 Y37.2108 I10.6918 J-0.0401
G2 X173.6492 Y26.5171 I0.0021 J-10.6916
G2 X162.9553 Y15.8242 I-10.6915 J-0.0014
G2 X152.2623 Y26.517 I-0.0011 J10.6919
G2 X152.2624 Y26.559 I10.6919 J0.0019
G1 F50.0 X155.456 Y26.5471
G2 F200.0 X162.9556 Y34.0172 I7.4983 J-0.0282
G2 X170.4556 Y26.5172 I0.002 J-7.498
G2 X162.9555 Y19.0178 I-7.4979 J-0.0015
G2 X155.4559 Y26.5171 I-0.0013 J7.4983
G2 X155.456 Y26.5471 I7.4983 J0.0018
G0 Z3.0
G0 X174.2754 Y26.5294
G0 Z1.0
G1 F50.0 Z-3.0
G2 F200.0 X184.9695 Y37.2108 I10.6915 J-0.01
G2 X195.6627 Y26.5168 I0.0019 J-10.6914
G2 X184.9697 Y15.8246 I-10.6912 J-0.001
G2 X174.2754 Y26.517 I-0.0032 J10.6911
G2 Y26.5294 I10.6915 J0.0023
G1 F50.0 X177.469 Y26.5264
G2 F200.0 X184.9694 Y34.0172 I7.4979 J-0.007
G2 X192.4691 Y26.517 I0.002 J-7.4978
G2 X184.9695 Y19.0182 I-7.4976 J-0.0013
G2 X177.469 Y26.5172 I-0.003 J7.4975
G2 Y26.5264 I7.4979 J0.0022
G0 Z3.0
G0 X173.9623 Y34.9971
G0 Z1.0
G1 F50.0 Z-3.0
G3 F200.0 X162.9554 Y40.4108 I-11.0047 J-8.4779
G3 X151.4623 Y34.3241 I-0.0012 J-13.8919
G3 X139.9683 Y40.4108 I-11.4918 J-7.8049
G3 X128.4755 Y34.3245 I-0.0012 J-13.8919
G3 X116.9804 Y40.4108 I-11.4909 J-7.8042
G3 X105.7209 Y34.6568 I-0.0008 J-13.8918
G3 X94.4599 Y40.4105 I-11.2582 J-8.1376
G3 X83.9619 Y35.6183 I-0.0016 J-13.8914
G3 X73.4641 Y40.4105 I-10.4965 J-9.0993
G3 X59.5696 Y26.5165 I-0.0036 J-13.8909
G3 X73.4634 Y12.6246 I13.8911 J-0.0009
G3 X83.9619 Y17.4166 I0.0023 J13.8912
G3 X94.4598 Y12.6246 I10.4962 J9.0991
G3 X105.7211 Y18.3783 I0.0032 J13.8909
G3 X116.98 Y12.6246 I11.2585 J8.1381
G3 X128.4755 Y18.7106 I0.0048 J13.8903
G3 X139.9681 Y12.6242 I11.4917 J7.8055
G3 X151.4623 Y18.7109 I0.0026 J13.8915
G3 X162.9551 Y12.6242 I11.4919 J7.8053
G3 X173.9624 Y18.038 I0.0026 J13.8915
G3 X184.9699 Y12.6246 I11.0042 J8.4777
G3 X198.8627 Y26.5165 I0.0016 J13.8912
G3 X184.9696 Y40.4108 I-13.8914 J0.0029
G3 X173.9623 Y34.9971 I-0.0027 J-13.8915
G0 Z3.0
G0 Y11.917
G0 Z1.0
G1 F50.0 Z-3.0
G1 F200.0 X198.641
G2 X203.0836 Y16.5166 I12.3191 J-7.4534
G1 Y29.7029
G2 X196.5617 Y41.7568 I7.8769 J12.0532
G2 X210.9638 Y56.1575 I14.3983 J0.0024
G1 X216.754 Y56.1572
G1 X216.7543
G1 X216.7537
G1 X216.754
G1 X226.8386
G1 Y93.7085
G1 X213.4836
G2 X203.0836 Y104.1085 I0.0 J10.4
G1 Y108.5793
G2 X198.8975 Y113.1271 I7.8769 J11.451
G1 X75.9326
G1 Y87.3646
G1 Y84.1896
G2 X65.5326 Y73.7896 I-10.4 J0.0
G1 X62.3576
G1 X62.3572
G1 X33.0516 Y73.7908
G2 X26.9008 Y64.8247 I-14.0688 J3.0585
G1 Y16.4883
G2 X31.3008 Y11.917 I-7.9182 J-12.0247
G1 X173.9623
G1 F50.0 Y8.717
G1 F200.0 X200.6009
G2 X206.2836 Y14.6388 I10.3591 J-4.2534
G1 Y31.5807
G2 X199.7617 Y41.757 I4.6769 J10.1755
G2 X210.9633 Y52.9575 I11.1983 J0.0022
G1 X216.7539 Y52.9572
G1 X216.7541
G1 X216.7537
G1 X216.7539
G1 X230.0386
G1 Y96.9085
G1 X213.4836
G2 X206.2836 Y104.1085 I0.0 J7.2
G1 Y110.4081
G2 X200.9233 Y116.3271 I4.6769 J9.6222
G1 X72.7326
G1 Y87.3646
G1 Y84.1896
G2 X65.5326 Y76.9896 I-7.2 J0.0
G1 X62.3576
G1 X62.3573
G1 X30.1799 Y76.9909
G1 X30.1802 Y76.8665
G2 Y76.8567 I-7.2 J-0.0146
G2 X23.7008 Y66.6943 I-11.1974 J-0.0075
G1 Y14.6187
G2 X29.3409 Y8.717 I-4.7182 J-10.155
G1 X173.9623
G1 F50.0 Y5.517
G1 F200.0 X203.0314
G2 X209.4836 Y12.3245 I7.9287 J-1.0534
G1 Y33.8948
G2 X202.9617 Y41.7572 I1.4769 J7.8613
G2 X210.9627 Y49.7575 I7.9983 J0.002
G1 X216.7538 Y49.7572
G1 X216.7539
G1 X216.7537
G1 X216.7538
G1 X233.2386
G1 Y100.1085
G1 X213.4836
G2 X209.4836 Y104.1085 I0.0 J4.0
G1 Y112.6785
G2 X203.4788 Y119.5271 I1.4769 J7.3517
G1 X69.5326
G1 Y87.3646
G1 Y84.1896
G2 X65.5326 Y80.1896 I-4.0 J0.0
G1 X62.3576
G1 X62.3574
G1 X26.9668 Y80.191
G1 X26.967 Y80.1669
G2 Y80.1617 I-3.9999 J-0.0325
G1 X26.9726 Y79.3411
G2 X26.9727 Y79.3344 I-3.9999 J-0.0273
G1 X26.9759 Y78.719
G2 Y78.7151 I-3.9999 J-0.0207
G1 X26.9769 Y78.4843
G2 Y78.4756 I-4.0 J-0.0168
G1 X26.9802 Y76.86
G2 Y76.8546 I-4.0 J-0.0081
G2 X20.5008 Y68.9972 I-7.9974 J-0.0053
G1 Y12.3158
G2 X26.9105 Y5.517 I-1.5182 J-7.8522
G1 X173.9623
G0 Z3.0
G0 X199.8568 Y18.1172
G0 Z-2.0
G1 F50.0 Z-6.0
G2 F200.0 X199.8836 Y18.1389 I11.1032 J-13.6536
G1 Y18.1648
G2 X199.8568 Y18.1172 I-14.9121 J8.351
G0 Z3.0
G0 X173.07 Y76.1919
G0 Z-2.0
G1 F50.0 Z-6.0
G2 F200.0 X173.1933 Y76.3271 I37.89 J-34.4328
G1 X172.3817
G2 X173.07 Y76.1919 I-9.4241 J-49.8079
G0 Z3.0
G0 X153.5301 Y76.3271
G0 Z-2.0
G1 F50.0 Z-6.0
G1 F200.0 X149.3946
G2 X151.4624 Y75.891 I-9.4241 J-49.8079
G2 X153.5301 Y76.3271 I11.4918 J-49.3721
G0 Z3.0
G0 X130.5431
G0 Z-2.0
G1 F50.0 Z-6.0
G1 F200.0 X126.4086
G2 X128.4758 Y75.8912 I-9.424 J-49.8068
G2 X130.5431 Y76.3271 I11.4914 J-49.3722
G1 F50.0 Y77.9271
G1 F200.0 X110.7005
G2 X110.2264 Y75.1441 I-45.1679 J6.2625
G2 X116.976 Y75.6108 I6.7532 J-48.625
G2 X128.4758 Y74.2469 I0.0086 J-49.0905
G2 X139.9669 Y75.6108 I11.4914 J-47.728
G2 X151.4624 Y74.2468 I0.0036 J-49.0916
G2 X162.954 Y75.6108 I11.4918 J-47.7279
G2 X173.6452 Y74.4333 I0.0036 J-49.0916
G2 X176.5008 Y77.4321 I37.3148 J-32.6741
G2 X176.1487 Y77.9271 I36.9828 J26.6764
G1 X130.5431
G1 F50.0 Y81.1271
G1 F200.0 X107.8219
G2 X105.8416 Y71.0387 I-42.2893 J3.0625
G2 X116.9764 Y72.4108 I11.138 J-44.5196
G2 X128.4758 Y70.9488 I0.0082 J-45.8905
G2 X139.9671 Y72.4108 I11.4914 J-44.4299
G2 X151.4624 Y70.9487 I0.0035 J-45.8916
G2 X162.9541 Y72.4108 I11.4919 J-44.4298
G2 X173.9623 Y71.0718 I0.0035 J-45.8916
G2 X175.2367 Y71.3674 I11.0046 J-44.5525
G2 X180.839 Y77.0513 I35.7233 J-29.6083
G2 X177.8519 Y81.1271 I32.6446 J27.0572
G1 X130.5431
G1 F50.0 Y84.3271
G1 F200.0 X104.7326
G1 Y84.1896
G2 X101.51 Y68.6248 I-39.2 J0.0
G2 X105.7205 Y67.6994 I-7.0473 J-42.1056
G2 X116.9768 Y69.2108 I11.2591 J-41.1803
G2 X128.4758 Y67.6352 I0.0078 J-42.6905
G2 X139.9672 Y69.2108 I11.4914 J-41.1163
G2 X151.4624 Y67.635 I0.0034 J-42.6916
G2 X162.9542 Y69.2108 I11.4919 J-41.1161
G2 X173.9623 Y67.7681 I0.0034 J-42.6916
G2 X177.0029 Y68.4614 I11.0046 J-41.2488
G2 X185.5001 Y76.6574 I33.9571 J-26.7022
G2 X179.6408 Y84.3271 I27.9835 J27.4511
G1 X130.5431
G1 F50.0 Y87.5271
G1 F200.0 X101.5326
G1 Y87.3646
G1 Y84.1896
G2 X96.5723 Y65.9541 I-36.0 J0.0
G2 X105.7206 Y64.3718 I-2.1096 J-39.4349
G2 X116.9772 Y66.0108 I11.259 J-37.8528
G2 X128.4758 Y64.302 I0.0074 J-39.4905
G2 X139.9673 Y66.0108 I11.4914 J-37.7831
G2 X151.4624 Y64.3018 I0.0032 J-39.4916
G2 X162.9544 Y66.0108 I11.4919 J-37.7829
G2 X173.9623 Y64.4466 I0.0032 J-39.4916
G2 X178.7873 Y65.5243 I11.0046 J-37.9272
G2 X190.6919 Y76.2421 I32.1727 J-23.7652
G2 X181.5296 Y87.5271 I22.7917 J27.8664
G1 X130.5431
G1 F50.0 Y90.7271
G1 F200.0 X98.3326
G1 Y87.3646
G1 Y84.1896
G2 X90.1889 Y62.5585 I-32.8 J0.0
G2 X94.4589 Y62.8105 I4.2694 J-36.0394
G2 X105.7206 Y61.0202 I0.0038 J-36.2913
G2 X116.9776 Y62.8108 I11.259 J-34.5011
G2 X128.4758 Y60.9435 I0.007 J-36.2905
G2 X139.9674 Y62.8108 I11.4914 J-34.4246
G2 X151.4624 Y60.9433 I0.0031 J-36.2916
G2 X162.9545 Y62.8108 I11.4919 J-34.4244
G2 X173.9623 Y61.1021 I0.0031 J-36.2916
G2 X180.5956 Y62.5466 I11.0046 J-34.5828
G2 X196.9442 Y75.7838 I30.3645 J-20.7874
G2 X183.5373 Y90.7271 I16.5394 J28.3247
G1 X130.5431
G1 F50.0 Y93.9271
G1 F200.0 X95.1326
G1 Y87.3646
G1 Y84.1896
G2 X80.7474 Y58.7993 I-29.6 J0.0
G2 X83.9619 Y57.9016 I-7.282 J-32.2803
G2 X94.459 Y59.6105 I10.4965 J-31.3826
G2 X105.7207 Y57.6366 I0.0037 J-33.0913
G2 X116.978 Y59.6108 I11.2589 J-31.1175
G2 X128.4758 Y57.5515 I0.0066 J-33.0905
G2 X139.9676 Y59.6108 I11.4914 J-31.0326
G2 X151.4624 Y57.5513 I0.003 J-33.0916
G2 X162.9546 Y59.6108 I11.4919 J-31.0324
G2 X173.9623 Y57.7274 I0.003 J-33.0916
G2 X182.436 Y59.5139 I11.0046 J-31.2081
G2 X207.3124 Y75.1589 I28.524 J-17.7547
G2 X185.6897 Y93.9271 I6.1712 J28.9495
G1 X130.5431
G0 Z3.0
G0 X55.9372 Y54.5899
G0 Z-2.0
G1 F50.0 Z-6.0
G1 F200.0 X46.1008 Y54.5903
G1 Y45.1329
G2 X55.9372 Y54.5899 I27.3596 J-18.6133
G1 F50.0 X57.6317 Y51.8754
G2 F200.0 X73.4654 Y56.4105 I15.8287 J-25.3558
G2 X83.9619 Y54.5069 I0.0 J-29.8915
G2 X94.4592 Y56.4105 I10.4965 J-27.9879
G2 X105.7207 Y54.2094 I0.0036 J-29.8913
G2 X116.9784 Y56.4108 I11.2589 J-27.6903
G2 X128.4757 Y54.1137 I0.0062 J-29.8905
G2 X139.9677 Y56.4108 I11.4914 J-27.5948
G2 X151.4624 Y54.1135 I0.0029 J-29.8916
G2 X162.9547 Y56.4108 I11.4919 J-27.5946
G2 X173.9623 Y54.3114 I0.0029 J-29.8916
G2 X184.3219 Y56.4039 I11.0046 J-27.7921
G2 X210.8386 Y72.1573 I26.6382 J-14.6447
G1 Y77.8413
G2 X188.0234 Y97.1271 I2.645 J26.2672
G1 X91.9326
G1 Y87.3646
G1 Y84.1896
G2 X65.5326 Y57.7896 I-26.4 J0.0
G1 X62.3576
G1 X62.3566
G1 X42.9008 Y57.7904
G1 Y27.917
G1 X43.6023
G2 X57.6317 Y51.8754 I29.8582 J-1.3974
G1 F50.0 X59.3263 Y49.1609
G2 F200.0 X73.4651 Y53.2105 I14.1342 J-22.6413
G2 X83.9619 Y51.06 I0.0003 J-26.6915
G2 X94.4593 Y53.2105 I10.4965 J-24.5409
G2 X105.7207 Y50.7201 I0.0034 J-26.6913
G2 X116.9788 Y53.2108 I11.2588 J-24.201
G2 X128.4757 Y50.6105 I0.0058 J-26.6905
G2 X139.9678 Y53.2108 I11.4914 J-24.0916
G2 X151.4624 Y50.6103 I0.0027 J-26.6916
G2 X162.9549 Y53.2108 I11.4919 J-24.0914
G2 X173.9623 Y50.8367 I0.0027 J-26.6916
G2 X184.97 Y53.2108 I11.0046 J-24.3173
G2 X186.2753 Y53.179 I0.0013 J-26.6914
G2 X210.9656 Y68.9575 I24.6848 J-11.4198
G1 X214.0386 Y68.9573
G1 Y80.9085
G1 X213.4836
G2 X190.5938 Y100.3271 I0.0 J23.2
G1 X88.7326
G1 Y87.3646
G1 Y84.1896
G2 X65.5326 Y60.9896 I-23.2 J0.0
G1 X62.3576
G1 X62.3567
G1 X41.078 Y60.9905
G2 X39.7008 Y59.2293 I-22.0952 J15.8588
G1 Y24.717
G1 X46.8302
G2 X46.7696 Y26.5155 I26.6304 J1.7987
G2 X59.3263 Y49.1609 I26.6909 J0.0041
G1 F50.0 X61.0208 Y46.4464
G2 F200.0 X73.4649 Y50.0105 I12.4396 J-19.9268
G2 X83.9619 Y47.535 I0.0006 J-23.4915
G2 X94.4595 Y50.0105 I10.4965 J-21.016
G2 X105.7208 Y47.1371 I0.0033 J-23.4913
G2 X116.9792 Y50.0108 I11.2588 J-20.618
G2 X128.4757 Y47.0083 I0.0054 J-23.4905
G2 X139.9679 Y50.0108 I11.4915 J-20.4894
G2 X151.4623 Y47.0081 I0.0026 J-23.4916
G2 X162.955 Y50.0108 I11.4919 J-20.4892
G2 X173.9623 Y47.2738 I0.0026 J-23.4916
G2 X184.9699 Y50.0108 I11.0046 J-20.7545
G2 X188.3376 Y49.7684 I0.0014 J-23.4914
G2 X210.9652 Y65.7575 I22.6224 J-8.0092
G1 X216.7543 Y65.7572
G1 X216.7549
G1 X216.7537
G1 X216.7543
G1 X217.2386
G1 Y84.1085
G1 X213.4836
G2 X193.4921 Y103.5271 I0.0 J20.0
G1 X85.5326
G1 Y87.3646
G1 Y84.1896
G2 X65.5326 Y64.1896 I-20.0 J0.0
G1 X62.3576
G1 X62.3568
G1 X39.3698 Y64.1905
G2 X36.5008 Y60.4482 I-20.3871 J12.6587
G1 Y21.517
G1 X50.5076
G2 X49.9696 Y26.5158 I22.9531 J4.9987
G2 X61.0208 Y46.4464 I23.4909 J0.0038
G1 F50.0 X62.7154 Y43.7319
G2 F200.0 X73.4646 Y46.8105 I10.745 J-17.2123
G2 X83.9619 Y43.8847 I0.0008 J-20.2915
G2 X94.4596 Y46.8105 I10.4965 J-17.3657
G2 X105.7208 Y43.4009 I0.0031 J-20.2913
G2 X116.9796 Y46.8108 I11.2588 J-16.8818
G2 X128.4757 Y43.2434 I0.005 J-20.2905
G2 X139.9681 Y46.8108 I11.4915 J-16.7245
G2 X151.4623 Y43.2431 I0.0025 J-20.2916
G2 X162.9551 Y46.8108 I11.4919 J-16.7242
G2 X173.9623 Y43.5676 I0.0025 J-20.2916
G2 X184.9698 Y46.8108 I11.0046 J-17.0482
G2 X190.6016 Y46.0141 I0.0015 J-20.2914
G2 X210.9647 Y62.5575 I20.3585 J-4.2549
G1 X216.7542 Y62.5572
G1 X216.7547
G1 X216.7537
G1 X216.7542
G1 X220.4386
G1 Y87.3085
G1 X213.4836
G2 X196.6836 Y104.1085 I0.0 J16.8
G1 Y105.601
G2 X195.6289 Y106.7271 I14.2769 J14.4292
G1 X82.3326
G1 Y87.3646
G1 Y84.1896
G2 X65.5326 Y67.3896 I-16.8 J0.0
G1 X62.3576
G1 X62.3569
G1 X37.5048 Y67.3906
G2 X33.3008 Y61.7653 I-18.5221 J9.4586
G1 Y19.5477
G2 X34.4947 Y18.317 I-14.3182 J-15.084
G1 X54.8997
G2 X53.1696 Y26.516 I18.561 J8.1987
G2 X62.7154 Y43.7319 I20.2909 J0.0036
G1 F50.0 X64.41 Y41.0174
G2 F200.0 X73.4643 Y43.6105 I9.0505 J-14.4978
G2 X83.9619 Y40.0076 I0.0011 J-17.0915
G2 X94.4598 Y43.6105 I10.4965 J-13.4886
G2 X105.7209 Y39.3787 I0.003 J-17.0913
G2 X116.98 Y43.6108 I11.2587 J-12.8596
G2 X128.4756 Y39.1711 I0.0046 J-17.0905
G2 X139.9682 Y43.6108 I11.4915 J-12.6522
G2 X151.4623 Y39.1708 I0.0024 J-17.0916
G2 X162.9552 Y43.6108 I11.4919 J-12.6519
G2 X173.9623 Y39.5967 I0.0024 J-17.0916
G2 X184.9697 Y43.6108 I11.0046 J-13.0773
G2 X193.3652 Y41.4077 I0.0016 J-17.0914
G2 X193.3617 Y41.7566 I17.5954 J0.3485
G2 X210.9643 Y59.3575 I17.5983 J0.0026
G1 X216.7541 Y59.3572
G1 X216.7545
G1 X216.7537
G1 X216.7541
G1 X223.6386
G1 Y90.5085
G1 X213.4836
G2 X199.8836 Y104.1085 I0.0 J13.6
G1 Y107.0047
G2 X197.166 Y109.9271 I11.0769 J13.0255
G1 X79.1326
G1 Y87.3646
G1 Y84.1896
G2 X65.5326 Y70.5896 I-13.6 J0.0
G1 X62.3576
G1 X62.3571
G1 X35.4296 Y70.5907
G2 X30.1008 Y63.2089 I-16.4469 J6.2586
G1 Y18.1041
G2 X32.9891 Y15.117 I-11.1182 J-13.6404
G1 X60.7258
G2 X56.3696 Y26.5163 I12.7348 J11.3987
G2 X64.41 Y41.0174 I17.0909 J0.0033
G0 Z3.0
G0 X67.7991 Y35.5884
G0 Z-2.0
G1 F50.0 Z-6.0
G2 F200.0 X73.4638 Y37.2105 I5.6614 J-9.0688
G2 X83.9619 Y28.5515 I0.0016 J-10.6915
G2 X94.4601 Y37.2105 I10.4965 J-2.0325
G2 X105.154 Y26.5174 I0.0027 J-10.6913
G2 X94.46 Y15.8246 I-10.6909 J-0.0019
G2 X83.9619 Y24.4832 I-0.002 J10.6911
G2 X73.4633 Y15.8246 I-10.4962 J2.0325
G2 X62.7696 Y26.5168 I-0.0027 J10.6911
G2 X67.7991 Y35.5884 I10.6909 J0.0028
G1 F50.0 X69.4903 Y32.8794
G2 F200.0 X73.4635 Y34.0169 I3.9702 J-6.3598
G2 X80.9633 Y26.5173 I0.0019 J-7.4979
G2 X73.4633 Y19.0182 I-7.4976 J-0.0015
G2 X65.9632 Y26.517 I-0.0026 J7.4975
G2 X69.4903 Y32.8794 I7.4973 J0.0026
G0 Z3.0
G0 X87.1926 Y28.3699
G0 Z-2.0
G1 F50.0 Z-6.0
G2 F200.0 X94.4602 Y34.0169 I7.2658 J-1.8509
G2 X101.9604 Y26.5174 I0.0025 J-7.4977
G2 X94.4602 Y19.0182 I-7.4973 J-0.0019
G2 X86.9605 Y26.5173 I-0.0021 J7.4975
G2 X87.1926 Y28.3699 I7.4978 J0.0017
G0 Z3.0
G0 X106.3084 Y27.1821
G0 Z-2.0
G1 F50.0 Z-6.0
G2 F200.0 X116.9808 Y37.2108 I10.6712 J-0.6631
G2 X127.6751 Y26.5169 I0.0038 J-10.6905
G2 X116.9805 Y15.8246 I-10.6903 J-0.002
G2 X106.2878 Y26.5166 I-0.0009 J10.6918
G2 X106.3084 Y27.1821 I10.6918 J0.0024
G1 F50.0 X109.4959 Y26.9841
G2 F200.0 X116.9812 Y34.0172 I7.4837 J-0.465
G2 X124.4815 Y26.5171 I0.0034 J-7.4969
G2 X116.981 Y19.0182 I-7.4967 J-0.0022
G2 X109.4814 Y26.5169 I-0.0014 J7.4982
G2 X109.4959 Y26.9841 I7.4982 J0.0021
G0 Z3.0
G0 X129.2765 Y26.6821
G0 Z-2.0
G1 F50.0 Z-6.0
G2 F200.0 X139.9684 Y37.2108 I10.6907 J-0.1632
G2 X150.6622 Y26.5171 I0.0021 J-10.6916
G2 X139.9683 Y15.8242 I-10.6915 J-0.0014
G2 X129.2752 Y26.517 I-0.0011 J10.6919
G2 X129.2765 Y26.6821 I10.6919 J0.0019
G1 F50.0 X132.4697 Y26.6334
G2 F200.0 X139.9686 Y34.0172 I7.4974 J-0.1145
G2 X147.4686 Y26.5172 I0.002 J-7.498
G2 X139.9685 Y19.0178 I-7.4979 J-0.0015
G2 X132.4688 Y26.5171 I-0.0013 J7.4983
G2 X132.4697 Y26.6334 I7.4983 J0.0018
G0 Z3.0
G0 X152.2624 Y26.559
G0 Z-2.0
G1 F50.0 Z-6.0
G2 F200.0 X162.9555 Y37.2108 I10.6918 J-0.0401
G2 X173.6492 Y26.5171 I0.0021 J-10.6916
G2 X162.9553 Y15.8242 I-10.6915 J-0.0014
G2 X152.2623 Y26.517 I-0.0011 J10.6919
G2 X152.2624 Y26.559 I10.6919 J0.0019
G1 F50.0 X155.456 Y26.5471
G2 F200.0 X162.9556 Y34.0172 I7.4983 J-0.0282
G2 X170.4556 Y26.5172 I0.002 J-7.498
G2 X162.9555 Y19.0178 I-7.4979 J-0.0015
G2 X155.4559 Y26.5171 I-0.0013 J7.4983
G2 X155.456 Y26.5471 I7.4983 J0.0018
G0 Z3.0
G0 X174.2754 Y26.5294
G0 Z-2.0
G1 F50.0 Z-6.0
G2 F200.0 X184.9695 Y37.2108 I10.6915 J-0.01
G2 X195.6627 Y26.5168 I0.0019 J-10.6914
G2 X184.9697 Y15.8246 I-10.6912 J-0.001
G2 X174.2754 Y26.517 I-0.0032 J10.6911
G2 Y26.5294 I10.6915 J0.0023
G1 F50.0 X177.469 Y26.5264
G2 F200.0 X184.9694 Y34.0172 I7.4979 J-0.007
G2 X192.4691 Y26.517 I0.002 J-7.4978
G2 X184.9695 Y19.0182 I-7.4976 J-0.0013
G2 X177.469 Y26.5172 I-0.003 J7.4975
G2 Y26.5264 I7.4979 J0.0022
G0 Z3.0
G0 X173.9623 Y34.9971
G0 Z-2.0
G1 F50.0 Z-6.0
G3 F200.0 X162.9554 Y40.4108 I-11.0047 J-8.4779
G3 X151.4623 Y34.3241 I-0.0012 J-13.8919
G3 X139.9683 Y40.4108 I-11.4918 J-7.8049
G3 X128.4755 Y34.3245 I-0.0012 J-13.8919
G3 X116.9804 Y40.4108 I-11.4909 J-7.8042
G3 X105.7209 Y34.6568 I-0.0008 J-13.8918
G3 X94.4599 Y40.4105 I-11.2582 J-8.1376
G3 X83.9619 Y35.6183 I-0.0016 J-13.8914
G3 X73.4641 Y40.4105 I-10.4965 J-9.0993
G3 X59.5696 Y26.5165 I-0.0036 J-13.8909
G3 X73.4634 Y12.6246 I13.8911 J-0.0009
G3 X83.9619 Y17.4166 I0.0023 J13.8912
G3 X94.4598 Y12.6246 I10.4962 J9.0991
G3 X105.7211 Y18.3783 I0.0032 J13.8909
G3 X116.98 Y12.6246 I11.2585 J8.1381
G3 X128.4755 Y18.7106 I0.0048 J13.8903
G3 X139.9681 Y12.6242 I11.4917 J7.8055
G3 X151.4623 Y18.7109 I0.0026 J13.8915
G3 X162.9551 Y12.6242 I11.4919 J7.8053
G3 X173.9624 Y18.038 I0.0026 J13.8915
G3 X184.9699 Y12.6246 I11.0042 J8.4777
G3 X198.8627 Y26.5165 I0.0016 J13.8912
G3 X184.9696 Y40.4108 I-13.8914 J0.0029
G3 X173.9623 Y34.9971 I-0.0027 J-13.8915
G0 Z3.0
G0 Y11.917
G0 Z-2.0
G1 F50.0 Z-6.0
G1 F200.0 X198.641
G2 X203.0836 Y16.5166 I12.3191 J-7.4534
G1 Y29.7029
G2 X196.5617 Y41.7568 I7.8769 J12.0532
G2 X210.9638 Y56.1575 I14.3983 J0.0024
G1 X216.754 Y56.1572
G1 X216.7543
G1 X216.7537
G1 X216.754
G1 X226.8386
G1 Y93.7085
G1 X213.4836
G2 X203.0836 Y104.1085 I0.0 J10.4
G1 Y108.5793
G2 X198.8975 Y113.1271 I7.8769 J11.451
G1 X75.9326
G1 Y87.3646
G1 Y84.1896
G2 X65.5326 Y73.7896 I-10.4 J0.0
G1 X62.3576
G1 X62.3572
G1 X33.0516 Y73.7908
G2 X26.9008 Y64.8247 I-14.0688 J3.0585
G1 Y16.4883
G2 X31.3008 Y11.917 I-7.9182 J-12.0247
G1 X173.9623
G1 F50.0 Y8.717
G1 F200.0 X200.6009
G2 X206.2836 Y14.6388 I10.3591 J-4.2534
G1 Y31.5807
G2 X199.7617 Y41.757 I4.6769 J10.1755
G2 X210.9633 Y52.9575 I11.1983 J0.0022
G1 X216.7539 Y52.9572
G1 X216.7541
G1 X216.7537
G1 X216.7539
G1 X230.0386
G1 Y96.9085
G1 X213.4836
G2 X206.2836 Y104.1085 I0.0 J7.2
G1 Y110.4081
G2 X200.9233 Y116.3271 I4.6769 J9.6222
G1 X72.7326
G1 Y87.3646
G1 Y84.1896
G2 X65.5326 Y76.9896 I-7.2 J0.0
G1 X62.3576
G1 X62.3573
G1 X30.1799 Y76.9909
G1 X30.1802 Y76.8665
G2 Y76.8567 I-7.2 J-0.0146
G2 X23.7008 Y66.6943 I-11.1974 J-0.0075
G1 Y14.6187
G2 X29.3409 Y8.717 I-4.7182 J-10.155
G1 X173.9623
G1 F50.0 Y5.517
G1 F200.0 X203.0314
G2 X209.4836 Y12.3245 I7.9287 J-1.0534
G1 Y33.8948
G2 X202.9617 Y41.7572 I1.4769 J7.8613
G2 X210.9627 Y49.7575 I7.9983 J0.002
G1 X216.7538 Y49.7572
G1 X216.7539
G1 X216.7537
G1 X216.7538
G1 X233.2386
G1 Y100.1085
G1 X213.4836
G2 X209.4836 Y104.1085 I0.0 J4.0
G1 Y112.6785
G2 X203.4788 Y119.5271 I1.4769 J7.3517
G1 X69.5326
G1 Y87.3646
G1 Y84.1896
G2 X65.5326 Y80.1896 I-4.0 J0.0
G1 X62.3576
G1 X62.3574
G1 X26.9668 Y80.191
G1 X26.967 Y80.1669
G2 Y80.1617 I-3.9999 J-0.0325
G1 X26.9726 Y79.3411
G2 X26.9727 Y79.3344 I-3.9999 J-0.0273
G1 X26.9759 Y78.719
G2 Y78.7151 I-3.9999 J-0.0207
G1 X26.9769 Y78.4843
G2 Y78.4756 I-4.0 J-0.0168
G1 X26.9802 Y76.86
G2 Y76.8546 I-4.0 J-0.0081
G2 X20.5008 Y68.9972 I-7.9974 J-0.0053
G1 Y12.3158
G2 X26.9105 Y5.517 I-1.5182 J-7.8522
G1 X173.9623
G0 Z3.0
M5
M30
