( Made using CamBam - http://www.cambam.co.uk )
( base 11/27/2015 3:27:15 PM )
( T4 : 3.6 )
G21 G90 G91.1 G64 G40
G0 Z3.0
( T4 : 3.6 )
T4 M6
( Profile1 )
G17
M3 S1000
G0 X211.6334 Y1.817
G0 Z1.0
G1 F50.0 Z-1.6
G2 F150.0 X212.0078 Y1.859 I0.3867 J-1.758
G3 X212.8043 Y2.1951 I-0.0078 J1.1303
G2 X212.8101 Y2.2009 I1.2808 J-1.2648
G3 X213.1412 Y3.0018 I-0.804 J0.8013
G1 Y3.0435
G2 X213.1836 Y3.4318 I1.8 J0.0
G1 Y44.61
G2 X214.9836 Y46.41 I1.8 J0.0
G1 X235.5275
G1 Y103.1029
G1 X214.9836
G2 X213.1836 Y104.903 I0.0 J1.8
G1 X213.1839 Y121.6225
G2 X213.1412 Y122.0123 I1.7573 J0.3898
G1 Y122.0638
G2 Y122.0648 I1.8 J0.0
G3 X212.806 Y122.8831 I-1.165 J0.0006
G2 X212.8007 Y122.8885 I1.2821 J1.2634
G3 X212.0092 Y123.2271 I-0.8044 J-0.786
G1 X18.007
G3 X17.1653 Y122.8752 I0.0009 J-1.1848
G2 X17.1591 Y122.8689 I-1.2802 J1.2654
G3 X16.8008 Y122.0126 I0.8679 J-0.8663
G1 X16.801 Y3.033
G3 X17.1587 Y2.2123 I1.1901 J0.0304
G2 X17.1655 Y2.2057 I-1.2586 J-1.2868
G3 X18.006 Y1.8597 I0.8421 J0.8518
G2 X18.3936 Y1.817 I-0.0023 J-1.8
G1 X211.6334
( Profile2 )
S1000
G0 Z3.0
G0 X60.3576 Y121.5271
G0 Z1.0
G1 F50.0 Z-6.0
G1 F150.0 X24.4801
G1 Y120.0323
G2 X18.9797 Y114.5318 I-5.4984 J-0.002
G1 X18.5008
G1 Y89.3646
G1 X60.3576
G1 Y121.5271
( Profile3 )
S1000
G0 Z3.0
G0 X210.9621 Y35.7573
G0 Z1.0
G1 F50.0 Z-6.0
G2 F150.0 X204.9617 Y41.7573 I-0.0015 J5.9988
G2 X210.9623 Y47.7575 I5.9983 J0.0019
G1 X216.7538 Y47.7572
G1 X216.7537
G1 X216.7538
G1 X235.2386
G1 Y102.1085
G1 X213.4836
G2 X211.4836 Y104.1085 I0.0 J2.0
G1 Y114.5317
G1 X210.9621
G2 X205.4619 Y120.0323 I-0.0016 J5.4986
G1 Y121.5271
G1 X67.5326
G1 Y87.3646
G1 Y84.1896
G2 X65.5326 Y82.1896 I-2.0 J0.0
G1 X62.3576
G1 X62.3575
G1 X24.9607 Y82.1911
G1 Y80.8627
G1 X24.9653 Y80.3718
G2 Y80.3695 I-1.9999 J-0.0186
G1 X24.9671 Y80.1506
G2 Y80.148 I-1.9999 J-0.0163
G1 X24.9727 Y79.3274
G2 Y79.3241 I-2.0 J-0.0137
G1 X24.9759 Y78.7086
G2 Y78.7067 I-2.0 J-0.0103
G1 X24.9769 Y78.4759
G2 Y78.4715 I-2.0 J-0.0084
G1 X24.9802 Y76.856
G2 Y76.8532 I-2.0 J-0.004
G2 X18.9795 Y70.8518 I-5.9974 J-0.004
G1 X18.5008
G1 Y10.4613
G1 X18.9795
G2 X24.9802 Y4.4614 I0.0031 J-5.9976
G1 Y3.517
G1 X204.9617
G1 Y4.2124
G2 X204.9645 Y4.3189 I2.0 J0.0
G2 X204.9617 Y4.4478 I4.4149 J0.1599
G2 Y4.461 I2.0 J0.014
G2 X210.9622 Y10.4619 I5.9983 J0.0026
G1 X211.4836
G1 Y35.7573
G1 X210.9621
G0 Z3.0
M5
M30
