( Made using CamBam - http://www.cambam.co.uk )
( base 11/27/2015 3:40:56 PM )
( T4 : 4.0 )
G21 G90 G91.1 G64 G40
G0 Z3.0
( T4 : 4.0 )
T4 M6
( Profile1 )
G17
M3 S1000
G0 X78.9633 Y26.5173
G0 Z1.0
G1 F50.0 Z-6.0
G2 F200.0 X73.4633 Y21.0182 I-5.4976 J-0.0015
G2 X67.9632 Y26.5172 I-0.0026 J5.4975
G2 X73.4634 Y32.0169 I5.4973 J0.0024
G2 X78.9633 Y26.5173 I0.002 J-5.4979
G0 Z3.0
G0 X88.9605 Y26.5184
G0 Z1.0
G1 F50.0 Z-6.0
G2 F200.0 X94.4603 Y32.0169 I5.4978 J0.0006
G2 X99.9604 Y26.5173 I0.0025 J-5.4977
G2 X94.4603 Y21.0182 I-5.4973 J-0.0019
G2 X88.9605 Y26.5173 I-0.0022 J5.4975
G2 Y26.5184 I5.4978 J0.0017
G0 Z3.0
G0 X111.4814 Y26.5189
G0 Z1.0
G1 F50.0 Z-6.0
G2 F200.0 X116.9814 Y32.0172 I5.4982 J0.0001
G2 X122.4815 Y26.5172 I0.0032 J-5.4969
G2 X116.9813 Y21.0182 I-5.4967 J-0.0023
G2 X111.4814 Y26.5171 I-0.0017 J5.4982
G2 Y26.5189 I5.4982 J0.0019
G0 Z3.0
G0 X134.4688
G0 Z1.0
G1 F50.0 Z-6.0
G2 F200.0 X139.9686 Y32.0172 I5.4983 J0.0
G2 X145.4686 Y26.5173 I0.0019 J-5.498
G2 X139.9686 Y21.0178 I-5.4979 J-0.0016
G2 X134.4688 Y26.5172 I-0.0014 J5.4983
G2 Y26.5189 I5.4983 J0.0017
G0 Z3.0
G0 X157.4559
G0 Z1.0
G1 F50.0 Z-6.0
G2 F200.0 X162.9557 Y32.0172 I5.4983 J0.0
G2 X168.4556 Y26.5173 I0.0019 J-5.498
G2 X162.9557 Y21.0178 I-5.4979 J-0.0016
G2 X157.4559 Y26.5172 I-0.0014 J5.4983
G2 Y26.5189 I5.4983 J0.0017
G0 Z3.0
G0 X179.469 Y26.5193
G0 Z1.0
G1 F50.0 Z-6.0
G2 F200.0 X184.9693 Y32.0172 I5.4979 J0.0001
G2 X190.4691 Y26.5172 I0.002 J-5.4978
G2 X184.9694 Y21.0182 I-5.4976 J-0.0014
G2 X179.469 Y26.5173 I-0.0028 J5.4975
G2 Y26.5193 I5.4979 J0.0021
G0 Z3.0
M5
M30
