( Made using CamBam - http://www.cambam.co.uk )
( base 11/27/2015 1:58:32 PM )
( T4 : 4.0 )
G21 G90 G91.1 G64 G40
G0 Z3.0
( T4 : 4.0 )
T4 M6
( Profile1 )
G17
M3 S1000
G0 X226.7912 Y-1.983
G0 Z1.0
G1 F50.0 Z-3.0
G1 F150.0 X3.1009
G2 X2.6258 Y-1.9258 I0.0 J2.0
G2 X-0.503 Y-0.5005 I0.3809 J4.9833
G2 X-1.9996 Y2.983 I3.4933 J3.564
G2 X-1.9998 Y3.0152 I1.9997 J0.0322
G1 X-2.0 Y122.0183
G2 Y122.0287 I2.0 J0.0
G2 X-0.5346 Y125.55 I5.0261 J-0.026
G2 X3.0047 Y127.0271 I3.5418 J-3.5077
G2 X3.0057 I0.001 J-2.0
G1 X227.0022
G2 X227.0161 Y127.027 I0.0 J-2.0
G2 X230.5011 Y125.5471 I-0.0342 J-4.9239
G2 X231.917 Y122.3691 I-3.541 J-3.4821
G2 X231.9691 Y121.9158 I-1.948 J-0.4533
G1 Y104.9029
G1 Y3.14
G2 X231.916 Y2.6822 I-2.0 J0.0
G2 X230.4901 Y-0.4782 I-4.9242 J0.3198
G2 X227.397 Y-1.9238 I-3.5052 J3.468
G2 X226.882 Y-1.9842 I-0.4885 J1.9394
G1 X226.7912 Y-1.983
G1 F50.0 Z-6.0
G1 F150.0 X3.1009
G2 X2.6258 Y-1.9258 I0.0 J2.0
G2 X-0.503 Y-0.5005 I0.3809 J4.9833
G2 X-1.9996 Y2.983 I3.4933 J3.564
G2 X-1.9998 Y3.0152 I1.9997 J0.0322
G1 X-2.0 Y122.0183
G2 Y122.0287 I2.0 J0.0
G2 X-0.5346 Y125.55 I5.0261 J-0.026
G2 X3.0047 Y127.0271 I3.5418 J-3.5077
G2 X3.0057 I0.001 J-2.0
G1 X227.0022
G2 X227.0161 Y127.027 I0.0 J-2.0
G2 X230.5011 Y125.5471 I-0.0342 J-4.9239
G2 X231.917 Y122.3691 I-3.541 J-3.4821
G2 X231.9691 Y121.9158 I-1.948 J-0.4533
G1 Y104.9029
G1 Y3.14
G2 X231.916 Y2.6822 I-2.0 J0.0
G2 X230.4901 Y-0.4782 I-4.9242 J0.3198
G2 X227.397 Y-1.9238 I-3.5052 J3.468
G2 X226.882 Y-1.9842 I-0.4885 J1.9394
G1 X226.7912 Y-1.983
G1 F50.0 Z-9.0
G1 F150.0 X3.1009
G2 X2.6258 Y-1.9258 I0.0 J2.0
G2 X-0.503 Y-0.5005 I0.3809 J4.9833
G2 X-1.9996 Y2.983 I3.4933 J3.564
G2 X-1.9998 Y3.0152 I1.9997 J0.0322
G1 X-2.0 Y122.0183
G2 Y122.0287 I2.0 J0.0
G2 X-0.5346 Y125.55 I5.0261 J-0.026
G2 X3.0047 Y127.0271 I3.5418 J-3.5077
G2 X3.0057 I0.001 J-2.0
G1 X227.0022
G2 X227.0161 Y127.027 I0.0 J-2.0
G2 X230.5011 Y125.5471 I-0.0342 J-4.9239
G2 X231.917 Y122.3691 I-3.541 J-3.4821
G2 X231.9691 Y121.9158 I-1.948 J-0.4533
G1 Y104.9029
G1 Y3.14
G2 X231.916 Y2.6822 I-2.0 J0.0
G2 X230.4901 Y-0.4782 I-4.9242 J0.3198
G2 X227.397 Y-1.9238 I-3.5052 J3.468
G2 X226.882 Y-1.9842 I-0.4885 J1.9394
G1 X226.7912 Y-1.983
G1 F50.0 Z-12.0
G1 F150.0 X3.1009
G2 X2.6258 Y-1.9258 I0.0 J2.0
G2 X-0.503 Y-0.5005 I0.3809 J4.9833
G2 X-1.9996 Y2.983 I3.4933 J3.564
G2 X-1.9998 Y3.0152 I1.9997 J0.0322
G1 X-2.0 Y122.0183
G2 Y122.0287 I2.0 J0.0
G2 X-0.5346 Y125.55 I5.0261 J-0.026
G2 X3.0047 Y127.0271 I3.5418 J-3.5077
G2 X3.0057 I0.001 J-2.0
G1 X227.0022
G2 X227.0161 Y127.027 I0.0 J-2.0
G2 X230.5011 Y125.5471 I-0.0342 J-4.9239
G2 X231.917 Y122.3691 I-3.541 J-3.4821
G2 X231.9691 Y121.9158 I-1.948 J-0.4533
G1 Y104.9029
G1 Y3.14
G2 X231.916 Y2.6822 I-2.0 J0.0
G2 X230.4901 Y-0.4782 I-4.9242 J0.3198
G2 X227.397 Y-1.9238 I-3.5052 J3.468
G2 X226.882 Y-1.9842 I-0.4885 J1.9394
G1 X226.7912 Y-1.983
G0 Z3.0
M5
M30
